;[gain=1.0 name=VOL_TEST duration=300s fade=5s cpu=0]
; The line above defines extra options, works only on msxplay.com 
; name    : Name of mml, use as the base download filename.
; gain    : Volume gain. (default: 1.0)
; duration: Length of the song. (default: 300s)
; fade    : Time of fading out. (default: 5s)
; cpu     : CPU speed ratio. 0:auto, 1:3.58MHz (default: 0)

; Version 1.00

; MSX SOUND ENHANCER など、各音源 (PSG,OPLL,SCC) の音量調整が可能な音源カートリッジで、音量バランスを調整するためのデータです。
;
; MSXplay で作成された MGS データを他の環境で再生する場合、事前にこのデータで各音源の音量を調整することで、MSXplay に近いバランスでの再生が可能となります。
;
; 再生環境でこのデータを再生して、各音源の音量にバラツキが無くなるよう調整します。
;
; 1フレーズごとに各音源を順番に再生しています。
; 1.(音量大) OPLL → PSG → SCC → ミックス
; 2.(音量小) OPLL → PSG → SCC → ミックス
; 3.(おまけ音量大) OPLL → PSG → SCC → ミックス
; 4.(おまけ音量小) OPLL → PSG → SCC → ミックス
;
; 備考
; 各音源の音量調整が可能な環境やカートリッジなど
; ・MSX SOUND ENHANCER (音源カートリッジ)
; ・SX-1 Mini (MSX2+互換機)
; ・MAmidiMEmo (エミュレート音源部)
; ・Carnivore2 (多機能カートリッジ) 調整可能?

#opll_mode 1
#tempo 120
#title { "OPLL & PSG & SCC Volume Balance Test"}

@v15 = { ; PSG
;       TL FB
        28, 7,
; AR DR SL RR KL MT AM VB EG KR DT
  15,15, 0, 0, 0, 4, 0, 0, 1, 0, 0,
  13,15, 0, 15,0, 2, 0, 0, 1, 0, 0 }

@s00 = { 7F7F7F7F 7F7F7F7F 7F7F7F7F 7F7F7F7F
         81818181 81818181 81818181 81818181 }

; OPLL part
9   v15 o5 q7 l8 @15
9   c.c16<a.g16a.g16e.d16c4>c4c4r4
9   [ r1 ]
9   [ r1 ]
9   c.r16<r.g16r.r16e.r16r4>c4r4r4

9A  r1

9   v8 o5 q7 l8 @15
9   c.c16<a.g16a.g16e.d16c4>c4c4r4
9   [ r1 ]
9   [ r1 ]
9   c.r16<r.g16r.r16e.r16r4>c4r4r4

A   \1 [16 r1 ]
9A  r1

9A  v15 o5 q7 l8 @15
9A  c.c16<a.g16a.g16e.d16c4>c4c4r4
9A  [ r1 ]
9A  [ r1 ]
9A  c.r16<r.g16r.r16e.r16r4>c4r4r4

9A  r1

9A  v8 o5 q7 l8 @15
9A  c.c16<a.g16a.g16e.d16c4>c4c4r4
9A  [ r1 ]
9A  [ r1 ]
9A  c.r16<r.g16r.r16e.r16r4>c4r4r4

; PSG part
1   v14 o5 q7 l8
1   [ r1 ]
1   c.c16<a.g16a.g16e.d16c4>c4c4r4
1   [ r1 ]
1   r.c16<r.r16a.r16r.d16r4>r4c4r4

12  r1

1   v7 o5 q7 l8
1   [ r1 ]
1   c.c16<a.g16a.g16e.d16c4>c4c4r4
1   [ r1 ]
1   r.c16<r.r16a.r16r.d16r4>r4c4r4

2   \1 [16 r1 ]
12  r1

12  v14 o5 q7 l8
12  [ r1 ]
12  c.c16<a.g16a.g16e.d16c4>c4c4r4
12  [ r1 ]
12  r.c16<r.r16a.r16r.d16r4>r4c4r4

12  r1

12  v7 o5 q7 l8
12  [ r1 ]
12  c.c16<a.g16a.g16e.d16c4>c4c4r4
12  [ r1 ]
12  r.c16<r.r16a.r16r.d16r4>r4c4r4

; SCC part
4   v13 o5 q7 l8 @00
4   [ r1 ]
4   [ r1 ]
4   c.c16<a.g16a.g16e.d16c4>c4c4r4
4   r.r16<a.r16r.g16r.r16c4>r4r4r4

45  r1

4   v1 o5 q7 l8 @00
4   [ r1 ]
4   [ r1 ]
4   c.c16<a.g16a.g16e.d16c4>c4c4r4
4   r.r16<a.r16r.g16r.r16c4>r4r4r4

5   \1 [16 r1 ]
45  r1

45  v13 o5 q7 l8 @00
45  [ r1 ]
45  [ r1 ]
45  c.c16<a.g16a.g16e.d16c4>c4c4r4
45  r.r16<a.r16r.g16r.r16c4>r4r4r4

45  r1

45  v1 o5 q7 l8 @00
45  [ r1 ]
45  [ r1 ]
45  c.c16<a.g16a.g16e.d16c4>c4c4r4
45  r.r16<a.r16r.g16r.r16c4>r4r4r4
