;[gain=1.0 name=SILP_S1Z duration=300s fade=5s cpu=0 lpf=0]
; The line above defines extra options, works only on msxplay.com
; name    : Name of mml, use as the base download filename.
; gain    : Volume gain. (default: 1.0)
; duration: Length of the song. (default: 300s)
; fade    : Time of fading out. (default: 5s)
; cpu     : CPU speed ratio. 0:auto, 1:3.58MHz (default: 0)
; lpf     : Low-pass filter. 0:off, 1:on (default: 0)

; Version 1.00

;*-*-* Initial setting

#opll_mode  0
#machine_id 2
#lfo_mode   0
#lfo_mode   0
#title  {   "GAME ARTS - SILPHEED - 02 - << SILF OF WIND Ⅰ (AREA 01,05,15) >>"
            "Composed by 五代響 / MGS Arranged by Takawo"    }

#alloc {
        0 = 500,
        1 = 1700,
        2 = 1200,
        3 = 1100,
        9 = 1650,
        A = 2050,
        B = 2300,
        C = 2250,
        D = 500,
        E = 500,
        F = 500,
        G = 750,
        H = 500 }

#tempo 165

;*-*-* Tone setting

@e01 = { ,,@3.ff0=90 }          ;Bass (OPLL)
@e02 = { ,,@2.a@8.f }           ;Bass (OPLL)
@e05 = { ,,f.c0=7 }             ;Main Metallophone1 (OPLL)
@e07 = { ,,@2.c.@0.f }          ;Main Synthesizer1 (OPLL)
@e09 = { ,,bdf0=250 }           ;Main Synthesizer2 (OPLL)
@e12 = { ,,f }                  ;Sub @10 #1 (OPLL)
@e13 = { ,,@13.9@10f }          ;Sub @10 #1 (OPLL)
@e15 = { ,,@13.7@6.dddfa=100 }    ;Sub Brass #1 (OPLL)
@e16 = { ,,@5.a@6.edeef7=50.0=150 } ;Sub Brass #2 (OPLL)
@e20 = { ,,@20.f }              ;Main Strings1 #1 (OPLL)
@e21 = { ,,@20.f8=10 }          ;Main Strings1 #2 (OPLL)
@e22 = { ,,@20.9abdf }          ;Main Strings1 Low #1 (OPLL)
@e23 = { ,,@20.9abde8=10 }      ;Main Strings1 Low #2 (OPLL)
@e25 = { 3,0,f7f7f7f7f7f7e6e6e6e6e6e6e6e6e6e6d5d5d5d5c4c4c4c4c4c4c4c4b3b3b3b3b3b3b3b3b3b3a3a3a3a3a3a3a3a3a3a3929292929292929292928282828282827272727272726161616161615151515141414141413030303030303020202020202020202010101010101010 }   ;Explosion (PSG)

@e31 = { ,,f }                  ;Clear Envelope

@#15 = 0

@v16 = {                        ;Metallophone1
;   TL FB
    37, 0,
;   AR DR SL RR KL MT AM VB EG KR DT
     8, 0, 0, 5, 2,10, 0, 0, 0, 1, 0,
    15, 0, 0, 2, 0, 2, 0, 0, 0, 1, 0 }

@v17 = {                        ;Synthesizer1
;   TL FB
    17, 7,
;   AR DR SL RR KL MT AM VB EG KR DT
    15, 0, 0, 0, 3, 6, 0, 0, 0, 0, 0,
    15, 0,15,15, 0, 1, 0, 0, 0, 1, 0 }

@v18 = {                        ;Synthesizer2
;   TL FB
    34, 7,
;   AR DR SL RR KL MT AM VB EG KR DT
    15, 1, 1, 0, 1, 2, 0, 0, 0, 1, 0,
    15, 0, 0, 0, 1, 4, 0, 0, 0, 0, 0 }

@v20 = {                        ;Strings1
;   TL FB
    15, 5,
;   AR DR SL RR KL MT AM VB EG KR DT
    15, 1,15,15, 1, 2, 0, 0, 0, 0, 0,
    15, 0,15,15, 0, 6, 0, 0, 0, 0, 0 }

@v30 = {                        ;Sine Wave
;   TL FB
    63, 0,
;   AR DR SL RR KL MT AM VB EG KR DT
    15, 0, 0, 0, 0, 2, 0, 0, 1, 0, 0,
    15, 0, 0,15, 0, 2, 0, 0, 1, 0, 0 }

;*-*-* Macro settings

#macro_offset { h = 00,
                s = 10 }

;Hi-hat
*00 = { v11 o4 /2n0 c v6 o3 /1 }
;Snare Drum
*10 = { o4 /2s1m1000n5 c v6 o3 /1 }

;*-*-* MML

;*-*-* Initialization *-*-*

9        q8 l16    v0c1 sf      ;Main (OPLL) 
A        q8 l16    v0c1 sf      ;Main (OPLL) 
F        q8 l16    v0c1 sf      ;Main (OPLL) 

B        q8 l16    v0c1 sf      ;Sub (OPLL) 
C        q8 l16    v0c1 sf      ;Sub (OPLL) 
G        q8 l16    v0c1 sf      ;Sub (OPLL) 

2        q8 l16 k0 v0c1         ;Chord 1 (PSG) 
3        q8 l16 k0 v0c1         ;Chord 2 (PSG) 

D   @e01 q8 l8  o3 v0c1 sf      ;Bass (OPLL) 
E   @e02 q8 l8  o3 v0c1 sf      ;Bass (OPLL) 
H   @e02 q8 l8  o3 v0c1 sf      ;Bass (OPLL) 

1        q8 l16 k0 v0c1         ;Drums (PSG) 

1239ABCDEFGH  r16

;F : Bass Drum
;G : Snare & Hi Hat
;H : cymbal & Tom-tom

;G track Volume setting
;  v(0,1,2...,15) : Snare / @(14,13,12...,0,15) : Hi Hat
;H track Volume setting
;  v(0,1,2...,15) : cymbal / @(14,13,12...,0,15) : Tom-tom

;*-*-* Pre *-*-*

9   @16 @e31 h17,2,1,4 v15 o4 \0 
A   @16 @e05 h17,2,1,4 v13 o4 \1 
F   @16 @e31 h17,2,1,4 v8  o4 \2 
9A  r1 r1 r2..e&
F   r1 r1 r2..e&
9A  er2...r8. v15@e31\0
F   er2...r8.

B   @16 @e31 h17,2,1,4 v15 o4 \0 
C   @16 @e05 h17,2,1,4 v13 o4 \1 
G   @16 @e31 h17,2,1,4 v8  o4 \2 
BC  r1 r1 r2..c&
G   r1 r1 r2..c&
BC  cr2...r8. v15@e31\0
G   cr2...r8.

2   v10 o3 q8 
2   r1 r8e(5e8.)5e(5e8.)5e8(5e8)5e8
2   e(5e)5e(5e8.)5e(5e8.)5e8(5e8)5e
2   r1r8.

3   v10 o3 q8 
3   r1 r8g(5g8.)5g(5g8.)5g8(5g8)5g8 
3   g(5g)5g(5g8.)5g(5g8.)5g8(5g8)5g
3   r1r8.

1   o3 q8 @\5 r8 
1   r2..*h00v0e r8e(3e8.)3e(3e8.)3e8(3e8*h00e 
1   e(3e)3e(3e8.)3e(3e8.)3e8(3e
1   r1r8.

D   v14 \0 
E   v15 \0 
H   v9  \2 
ED  r1
H   r1 c>c16< 
DE  [7 c>c< ] c>c16<
H   [7 c>c< ]
DEH r1r8.

;*-*-* Voice A (Opening) *-*-*

9 @30@e31hfQ0L%2\0
a @30@e31hfQ0L%2\0 
b @30@e31hfQ0L%2\0
c @30@e31hfQ0L%2\0

9 V5O6BV13O3G+V12O1D+O3G+V14G+V12O6D+%3V10D+V9O7DV13O3EC+V11O6F%3V10F+R%2V11O5GV14O4C
a V5O3F+V10BO7DV11O4CV13O5A+V10O6D+%3V9DV7O7D+V12O3GO2EV10O7C+%3V8O6GV9GV10G+V14O3A
b V4O3AV11D+O1BO5A+O4D+V9O6C+%3O7D+V7DV12O2G+O6F+V9G%3V6FV9O2AO7EV12O3C+
c V3O2A+V9FO7DV10O3D+V9O2G+O6C%3O7D+V7DR%2V12O6F+V7E%3V5O7BV8O5G+O7EV10E
9 F%3V15DDA+A%3AO5C+C+CC%3CO4A+V14O5CV13C+V12C+%3
a F+%3O4G+G+V15DV13O5B%3V15DO6C+C+O5A+O6C%3V14CCO4AV10O5EO4A+%3
b V14O4C%3V13O3D+DV12DV11O6D%3V14C+O4G+V12O5A+V14O6CV15O5A+%3V13AV12BV13O6CV8O4BG%3
c V12O4G%3O6GD+O4BV10O6A+%3V14O4BO5BV12O7C+V11CV13O5D+%3V12EV10A+V13O4G+V7O5FE%3
9 V10C+DR%26V12O4D+%3
a V9BO5EV6EV1O2DR%5V0DV1DDD%3DDDDV12O4F+%3
b V9O5D+V8O6GV6O5D+R%24V12O4C%3
c V8EV7O1FV5O5FR%24V11O4G+%3
9 V15D+O3EEE%3AV12O6GR%2V8A+V10G+%3G+V13CV12F+GV15O3E%3O4E
a V14F+V15EV14D+D+%3O3C+V11O6F+V8O2CR%2V9O7F+%3V11O6CV12O7CV11O6GV12O7EV15O4D+%3V13O3B
b V13CR%2V12A+A+%3R%2V11O6GV7F+V8O7FV9O6A%3V10O7CGFV12O3AR%3V13O6G+
c V12O2AV11O4BV10O5D+V12O2A%3V11GR%2V7O7CV6O2C+R%3V10O6CV5BV10O7GV12O4CV13O6A%3V12O4G+
9 D+C+CC+%3O3BO4F+O3A+A+B%3O4CED+D+D+%3R%2
a O6G+V12G+V13O4FG%3V15F+O3BO4FFE%3F+V13AV14G+V15G+G%3V13O2C+
b V12O4FV10G+V12O6FV13O3A%3CO2BV14AA+V13O3D+%3V14G+V12A+V13G+G+G+%3V12O2A+
c V11O3A+V9DV11F+V12O4E%3O6GO4BAA+V13O2D+%3V14O4G+V11O3C+V12O5CO2G+A%3V11O3D
9 R%2V8O6A+V9G%3V8DV9DV13G+G+V12G+%3V15O3G+AO4EFE%3F+G
a V6O7C+R%2V8C+%3C+C+V11O6AV10G+V12A+%3V14O4C+V15F+AAA%3V13O6AA
b V6CV7O7F+O6F+%3V8DV7C+R%2V9O7D+O6F+%3V13O2GV15O4DV14O6AAO3A+%3V11O4A+O6G+
c V6O7C+O6A+R%3V7FV5D+V9GAV8B%3V12A+V14O4G+V13O3BA+O2A%3V10O3BV11O4A
9 GGG%3GGGF+F+%3F+F+FEE%3D+E
a AV12AV11G+%3GO4FV12O5A+O4BV10B%3O3BBV9O4AV12O3AA+%3V14O5F+O4G
b V12G+V10A+V11G%3V9G+V10O4G+V12AV11O5A+V9O4C%3V10A+BV8O6AV11O4AG+%3V9O3AV12O4C
c V9O6GGV10F+%3V9GV6O5CV11O4D+V10O5BV9D+%3V8DD+O4CV10O2AO4B%3V8O7D+V11O4A+
9 DD%3O3F+V14F+V8O7C+O6FR%5V9F+V12F+F+V15O4A+%3O5CCO4A+
a V13A+V12O3A%3O4CV13O3C+V5O7GV8O6BV7O2D+%3F+V8O6F+V10O7DV11D+V15O5C%3O6D+V14EO4F+
b V11O3DO4F%3V10O2G+V13O3BV4O7G+V8O1FV7O6F%3O3CV8O6GV9O7C+O6GV14D+%3V13DV14D+V13D+
c O2EV10O3C%3O4FV11O7DV3A+V6O6F+V7E%3V6O3F+V8O7CV9DDV12O6D%3C+V14O5DV13O6E
9 V14O6D+V9D+%3V11DV12D+V13D+V15O5C+C+%3O4F+FV14O3GV15A+B%3GF+F
a AV9O7D%3O6C+V10DV8O7D+V15O6D+E%3EV12O4AGV14O2A+V11O6B%3V14O4DDV11C+
b O4GV8O6D%3EV9C+V6EV14O5D+D%3V15O4BV12O6FV13O4D+V12O6AV11O3G%3V13O2GGR%2
c DR%3V8D+O5BV6O7DV13O6DF%3O3BV12O4D+V13O3DV11O4F+V10O2C+%3V11O4GF+V9O2C+
9 V14C+%3V9O6G+A+V15O4G+AV13O6G+%3V12AAV11G+R%13
a V12O3F+%3R%2V9O6AV14O4A+V12O6G+V11A%3V9G+V10A+V8G+V10O2G+V4D%3V2DR%4V0D
b O6G+%3V7O2DR%2V13O4F+V11FV12O6G%3V8AV9O7DV7F+V8O6G+V1O2G%3V0GR%6
c V12O6G+%3V5O7GV8O6G+V12G+V11AG%3V7O7DV8O6G+V7AV8G+R%11
9 R%34
a V1D%3DDDDD%3DDDV0DD%3DR%7
b R%34
c R%34
9 R%33
a R%33
b R%33
c R%33
9 R%33
a R%33
b R%33
c R%33
9 R%33
a R%33
b R%33
c R%33
9 R%33
a R%33
b R%33
c R%33
9 R%18V4O1D+V11O6C+V13C+V15O3FA+%3A+A+
a R%18V5CV6O6DV9O7DV14O4DV12O3F+%3V15O4FF
b R%18V4A+V6O6CV8CV14O3C+V11O4C+%3V13O2AV14A
c R%18V4O3D+V5O7F+V9O6C+V13O1EV9O4A+%3V12A+A+
9 A+O4C+C+%3O3A+O4CG+GG+%3G+AAA%3A+O5DD
a FV12O6DV11O3G%3V14O4FV15F+V14C+V10AV15C%3V14C+V13BV14O5DV15D%3DV10O4AV15O5A
b V13AV11O6C+O4F%3V13O2AV14AO3A+R%2V13C+%3V12O4EFDV14O5C%3V13O4DR%2O5G+
c A+V10O3G+O2F%3V12O4ABV14FV10D+V12O5C+%3DO4C+V11O5F+V13O4D+%3O5GV9F+V13O4A
9 A+A%3AAAO4AA%3G+F+FV14O6F+V15O4C%3FFG+
a DD%3D+DDA+O6C%3V14DO4D+V12O6FV13O4C+V15F+%3CV14O5G+V15C+
b V14O4AA%3V12A+V11O7D+V14O4AV15O6CV14O5D%3BV13O4BV12O6F+V13O4F+O6C%3V14CV10O7C+V14O4B
c V12O5F+V13O6C%3O5CV11A+V13O6CV14O5DV13B%3C+O4A+V12GO3G+V13O4D+%3O3FR%2V14O4F+
9 BV14O5D%3V12O6FV8F+O7ER%5V15O5FO6DV14O4GV15O3G+%3O6DV13C+V15O4F+D+
a V14DV13O4B%3V10O6F+V7O7DR%2V5D+V3O2G+%3V15O6C+V14O4GO6DV13O3D+%3O6C+V14O3A+V13O6DO3A
b V13G+V12A%3V10O6EV7EV2O2DV4O7EV2O3C+%3V14O6DO5EV13O4CV12O6G+%3V13O3AV14O4C+V11O6EV13O4F+
c V13O5A+D+%3V11EV5O7DR%2V4D+V0O3G+%3V13O5F+V14FV12CV11O2D+%3V13O6D+O4EV10O3A+V13O4G+
9 O3A%3V9O6EV8EFA+V13F+%3V14F+D+V13GF+V15O3A%3G+A+AA
a V14O4F%3R%6V7O1D+V13O5C+%3C+V8O7A+V11O6GV12G+A%3V11A+V14O2A+V12O4D+F
b O6C+%3V7O2C+O6FV8O2C+DV12O6F%3FV7O7F+V11O6C+V12O3GO4D+%3V10F+V13EV12O3GV10D
c V12O3C+%3V5O7F+V6O2CO6F+O2BV12O6G%3O5FV6O6F+V10FV12O3A+V10C%3O1CR%2O6G+O5C+
9 A%3AG+G+F+G+%3G+AV14A+R%9V0O1D+R%3
a E%3V13DD+V14D+V13O2FV12F+%3V13O4D+DV14O3GV10O2D%3V9DV4DV2DR%5
b O4A%3V12O3DO2G+V13GV10O4DV11O1G+%3V12O2G+O3D+V13O4C+V8O7C+%3V7O2A+V2GV0GR%5
c O2D+%3V11O4F+G+O3BC+O4F%3G+V10O1EV11O7C+V8O2G+%3R%11
9 R%17V10O6CC%3V12DV11F+GV12O5BV11O6E%3
a V1DV2DDDD%3DDDV9O7DV10O6C+%3V11CV10O7D+V11O6F+V12O7DV11D%3
b R%4GGG%3GR%4V9O6C+V11O1F%3V10FO6GV11O7D+V9F+V10D%3
c R%17O5BV9O7C+%3O6C+V10EV11O5BO6CV10F%3
9 V12FV13GFFV14E%3V15O3A+A+A+A%3CO4CO5CCC%3O3A+
a V12DC+CO6FV14D%3C+V15CV13O5A+O4C%3V15CV12O3CV14O4F+V12O5EV15E%3V14O4G
b V11O6EF+V10EV12EO7C%3V14O6CO4FV11O6BV13O2G+%3V12O4GGV14O5D+V11O4GV15O6D%3V13O3C
c F+V11O7FC+V12CO6C%3V14O4DV12O2AV10O6CV11O4G%3R%2O6BV14O4DV10O6BV14C%3V13O4A
9 BO5C+C+O6D%3O4GG+BCC%3CGF+AV13O6G+%3V11O4A+
a V12GV15O6C+DO4B%3V13BV14O5CO4G+V11GV12G%3V15G+V12A+O6CV15O4EV13O6G%3V10F+
b O5DV14D+V13EV14E%3V12O4D+O5EV13O3BV10O6AV12O3D+%3V13C+V12O4EV11O6C+V13CV12G+%3V9O5D
c O5C+V12CV11O6D+V13O4A%3V10O5DV12O3BO2BV9O3C+V11O4F%3V12A+R%2V11BV12O3FV10O6G+%3O4G+
9 V12BV15EEE%3D+V13O6F+V8GR%3GV14O2C+V15O3A+BA+%3AA
a V12GV15O4GV13C+V15O3A%3V14A+V12O6GR%2V7O7D%3V8O1GV14O2GV10O4EV13D+V15F%3EV14D+
b V11C+V12O3A+V13O4GV14F+%3V12O2CV13O4DV7O7DC+%3FV13O3D+V12G+O4GV14O2B%3AV13O4A
c GV12O6GV10O7CV13O2G+%3V12O4F+V13CV6O7DV7O2D%3V6O6GR%2V9O7GV11O3F+B%3V12O4AO2E
9 F+R%5V8O6F+V10A+GV11O5GV10O6C+%3V13O5BV14A+V15O4EEF%3F+O3B
a C+V9O6GV8G%3R%2V9DAV10GD+%3V13CC+V14O4G+V15AV14A+%3V15O3BV13O4F+
b V12O1EV8O2CV7O6F%3O7D+V9O6C+O5GO6GV8C%3V11O5A+AV12O4CV13O3AA+%3V15O4DV13O5A+
c O3C+V8O7C+V7D+%3V6O2CV9O7D+O5AG+V7O7G%3V11O6DO4CO3F+V13O4GV12G%3V14O5GV12G+
9 BV13O6A+V11F%3V13FV15O5C+C+C%3O4BAFF+G%3GA+O5C
a O5AV9O7FV10E%3EV13O6DV15D+V14E%3D+V15O4D+V13O6FV14O4AV13O6D+%3V14DV15O4F+O6C
b O3CV11O6A+V9F%3V8F+V14O4BV12A+V13O5E%3V14O6FFV12F+V14O5CV12O6F%3V10O4AV14O6CO5D
c O6CR%2V9F+%3O5C+V14O4G+V11GV13O6D%3V11F+V14O4BV10O6EV14F+V13D%3V10O4C+V12O3BV13O4F+
9 C+C+%3O4BO6C+V11C+O5C+V12O4B%3O6FV9GV11GV15O4ED+%3FO3A+O4C
a CD%3DV14O4G+R%2V10O5CV11D+%3V9O7D+V8O6F+V9O7EV13O4DV15G+%3V14O6G+V12O4DV14O3A
b V13O6C+V15O5D+%3O4G+V14O5CV8O7EV9O6GV10F+%3V7FV8O7EV9O6G+V13O4F+V14O6G%3V13GV11A+V14O4F
c V12O5A+V14O6C%3V13O5EV12O6D+V7O2CV9O6C+O7D+%3V7O6F+V9FV8O4F+V12O6G+V14O4C%3V13BV12O3F+O2B
9 V14O6D+V15O3A%3O4F+G+V9O6EV10F+%3F+FV8FER%11
a V13O4FV15E%3V14O3G+V13O4DR%7V6O7F+V8O6EV7O7DR%11
b V11O3AV13O2G%3V14O4A+V11O6D+V9O7CV7D+%3DR%2O6D+V5FR%11
c V10O6DV11O3E%3V13O4D+V12FV9O6FV7O7D%3V6D+V5O6F+V6O7DV5O6ER%11
9 R%4  ;TOTAL R%963
a R%4  ;TOTAL R%963
b R%4  ;TOTAL R%963
c R%4  ;TOTAL R%963

123DEFGH  r%200r%200r%200r%200r%163

9        q8 l16    sf      ;Main (OPLL) 
A        q8 l16    sf      ;Main (OPLL) 

B        q8 l16    sf      ;Sub (OPLL) 
C        q8 l16    sf      ;Sub (OPLL) 

;*-*-* Main *-*-*

9   @16 @e31 h17,2,1,4 v15 o4 \0 
A   @16 @e05 h17,2,1,4 v13 o4 \1 
F   @16 @e31 h17,2,1,4 v8  o4 \2 
9A  r4 r1 r2..ef
F   r4 r1 r2..efef 
9A  g8g4g4>c4. <aa+aa+a8g4g8f4 f4.c4.f4 e4.d4.r8ef g8g4g4>c4.
f   g8g4g4>c4. <aa+aa+a8g4g8f4 f4.c4.f4 e4.d4.efef g8g4g4>c4. 
9A  dededrc4c<ca+4 >c8<a+4g+4.d+4g2.r8
F   dededcc4c<ca+4 >c8<a+4g+4.d+4g2. 

9   [2 @17 @e31 h17,2,1,5 v13 o5 \0 
A   [2 @2  @e07 h17,2,1,5 v13 o6 \1 
F   [2 @17 @e31 h17,2,1,5 v8  o5 \2 
9A  ef
F   efef 
9A  g8g4g4>c4. <aa+aa+a8g4g8f4 f4.c4.f4 e4.d4.r8ef
F   g8g4g4>c4. <aa+aa+a8g4g8f4 f4.c4.f4 e4.d4.efef 
9A  g8g4g4>c4. dededrc4^<ca+4 >c8<a+4g+4.d+4 g1&
F   g8g4g4>c4. dededcc4^<ca+4 >c8<a+4g+4.d+4 g1& 
9A  g1& g2.r8
F   g1& g2. 

9   @18 @e31 h17,2,1,-4 v13 o5 \0 
A   @18 @e09 h17,2,1,-4 v13 o6 \0 
F   @18 @e31 h17,2,1,-4 v8  o5 \2 
9A  e<g     e2.r8>e<g   e2.r8>e<g   d+1&
F   e<g>e<g e2.>e<g>e<g e2.>e<g>e<g d+1& 
9A  d+2.r8ed+  d2.c4 <a+2.r8>cd e1&
F   d+2.ed+ed+ d2.c4 <a+2.>cdcd e1& 
9A  e2.r8>e<g   e2.r8>e<g   e2.r8>e<g   d+1&
F   e2.>e<g>e<g e2.>e<g>e<g e2.>e<g>e<g d+1& 
9A  d+2.r8d+e  f1 a+2>d2 c1&
F   d+2.d+ed+e f1 a+2>d2 c1& 
9A  c2.r8
F   c2. 

9   @20 @e22 h20,2,1,5 v13 o5 \0 
A   @20 @e23 h20,2,1,5 v12 o6 \0 
F   @20 @e22 h20,2,1,5 v8  o5 \2 
9   e @e20 f 
A   e @e21 f 
F   e @e20 f @e22 e @e20 f 
9A  g8g4g4>c4. <aa+aa+a8g4g8f4 f4.c4.f4 e4.d4.r8
F   g8g4g4>c4. <aa+aa+a8g4g8f4 f4.c4.f4 e4.d4. @e22 e @e20 f 
9   @e22 e @e20 f g8g4g4>c4. 
A   @e23 e @e21 f g8g4g4>c4. 
F   @e22 e @e20 f g8g4g4>c4. 
9A  dededr
F   deded @e22 c @e20 
9   @e22 c4 @e20 c<ca+4 >c8<a+4g+4.d+4 g2.r8 ] 
A   @e23 c4 @e21 c<ca+4 >c8<a+4g+4.d+4 g2.r8 ] 
F   @e22 c4 @e20 c<ca+4 >c8<a+4g+4.d+4 g2. ] 

;End

9   @17 @e31 h17,2,1,5 v13 o5 \0 
A   @2  @e07 h17,2,1,5 v13 o6 \1 
F   @17 @e31 h17,2,1,5 v8  o5 \2 
9A  ef
F   ef 

;*-*-* Sub *-*-*

B   @16 @e31 h17,2,1,4 v15 o4 \0 
C   @16 @e05 h17,2,1,4 v13 o4 \1 
G   @16 @e31 h17,2,1,4 v8  o4 \2 
BC  r4 r1 r2..cd
G   r4 r1 r2..cdcd 
BCG e8e4e4e4. f4d+4<a+4a+4 [4 >fc<a ] >fc<a8 [4 >d<bg ] >d<b>cd
BCG e8e4e4e4. f8d8f8f8f8a+>cd4 c<ca+<a+>a+<a+>g+<g+>g+<g+>g+<g+>d+<d+>d+<d+ >d1

B   [2 @10 @e12 h17,2,1,7 v12 o5 \0 
C   [2 @10 @e13 h17,2,1,7 v11 o3 \0 
G      @10 @e12 h17,2,1,7 v7  o5 \2 [2 
BC  e8e4e4e4. f4d+4<a+4a+4 >[5 fc<a> ] r
G   e8e4e4e4. f4d+4<a+4a+4 >[5 fc<a> ] d 
BCG [4 d<bg> ] d<b>cd
BC  e8e4e4e4. f8d8f8f8f8a+>cdr8. c<ca+<a+>a+<a+>g+<g+>g+<g+>g+<g+>d+<d+>d+<d+     >d2.r8
G   e8e4e4e4. f8d8f8f8f8a+>cdr   c<c>c<ca+<a+>a+<a+>g+<g+>g+<g+>g+<g+>d+<d+>d+<d+ >d2. 

B   @e15 h20,2,1,6  v13 o5 \0 
C   @e16 h17,2,0,-1 v13 o6 \0 
G   @e16 h20,2,1,6  v10 o6 \0 
BC  b>c
G   b>c<b>c 
BC  d2.r8<b>c   d4r8<b>df2
G   d2.<b>c<b>c d4<b>d<b>df2 

B   @10 @e12 h17,2,1,7 v12 o6 \0 
C   @10 @e13 h17,2,1,7 v11 o4 \0 
G   @10 @e12 h17,2,1,7 v7  o6 \2 
BCG [4 c<geg> ] [ c<geg> ] < [ a+geg ] [ [4 g+d+cd+ ] ]
BCG [ [4 a+fdf ] ] > [3 [4 c<geg> ] ] [ c<geg> ] < [ a+geg ] [ [4 g+d+cd+ ] ]
BCG [ [4 a+fdf ] ] > [4 c<geg> ] [3 c<geg> ] c<g

B   @20 @e22 h20,2,1,5 v12 o5 \0 
C   @20 @e23 h20,2,1,5 v12 o6 \0 
G   @20 @e22 h20,2,1,5 v8  o5 \2 
B   c @e20 d 
C   c @e21 d 
G   c @e20 d 
B   e8e4e4e4. f4d+4<a+4a+4 [5 >fc<a ] r        > @e22 d< @e20 bg [3 >d<bg ] >d<b>cd 
C   e8e4e4e4. f4d+4<a+4a+4 [5 >fc<a ] r        > @e23 d< @e21 bg [3 >d<bg ] >d<b>cd 
G   e8e4e4e4. f4d+4<a+4a+4 [5 >fc<a ] > @e22 d d< @e20 bg [3 >d<bg ] >d<b>cd 
B   e8e4e4e4. f8d8f8f8f8a+>cd8r8               @e22 c< @e20 ca+<a+>a+<a+>g+<g+>g+<g+>g+<g+>d+<d+>d+<d+> 
C   e8e4e4e4. f8d8f8f8f8a+>cd8r8               @e23 c< @e21 ca+<a+>a+<a+>g+<g+>g+<g+>g+<g+>d+<d+>d+<d+> 
G   e8e4e4e4. f8d8f8f8f8a+>cd8 @e22 c< @e20 c> @e22 c< @e20 ca+<a+>a+<a+>g+<g+>g+<g+>g+<g+>d+<d+>d+<d+> d2. 
BC  d2.r4 ]
G   @10 @e31 h17,2,1,7 v8  o4 \2 
G   e8 | e8 ] 

;End

;*-*-* Chord 1 *-*-*

2   v10 o3 q8 
2   r4 r8e(5e8.)5e(5e8.)5e8(5e8)5e8 
2   [2 e(5e)5e(5e8.)5e(5e8.)5e8(5e8)5e8 ] a+(5a+)5a+(5a+8.)5a+(5a+8.)5a+8(5a+8)5a+8 
2   a(5a)5a(5a8.)5a(5a8.)5a8(5a8)5a8 d(5d)5d(5d8.)5d(5d8.)5d8(5d8)5d8 e(5e)5e(5e8.)5e(5e8.)5e8(5e8)5e8 
2   d(5d)5d(5d8.)5d(5d8.)5d8(5d8)5d8 d+(5d+)5d+(5d+8.)5d+(5d+8.)5d+8(5d+8)5d+8 d(5d)5d(5d8.)5d(5d8.)5d8(5d8)5d8 

2   [2 e(5e)5e(5e8.)5e(5e8.)5e8(5e8)5e8 a+(5a+)5a+(5a+8.)5a+(5a+8.)5a+8(5a+8)5a+8 a(5a)5a(5a8.)5a(5a8.)5a8(5a8)5a8 
2   d(5d)5d(5d8.)5d(5d8.)5d8(5d8)5d8 e(5e)5e(5e8.)5e(5e8.)5e8(5e8)5e8 d(5d)5d(5d8.)5d(5d8.)5d8(5d8)5d8 
2   d+(5d+)5d+(5d+8.)5d+(5d+8.)5d+8(5d+8)5d+8 [3 d(5d)5d(5d8.)5d(5d8.)5d8(5d8)5d8 ] 
2   [ e(5e)5e(5e8.)5e(5e8.)5e8(5e8)5e8 ] [ d+(5d+)5d+(5d+8.)5d+(5d+8.)5d+8(5d+8)5d+8 ] 
2   [ d(5d)5d(5d8.)5d(5d8.)5d8(5d8)5d8 ] [4 e(5e)5e(5e8.)5e(5e8.)5e8(5e8)5e8 ] 
2   [ d+(5d+)5d+(5d+8.)5d+(5d+8.)5d+8(5d+8)5d+8 ] [ d(5d)5d(5d8.)5d(5d8.)5d8(5d8)5d8 ] 
2   [ e(5e)5e(5e8.)5e(5e8.)5e8(5e8)5e8 ] 
2   e(5e)5e(5e8.)5e(5e8.)5e8(5e8)5e8 a+(5a+)5a+(5a+8.)5a+(5a+8.)5a+8(5a+8)5a+8 a(5a)5a(5a8.)5a(5a8.)5a8(5a8)5a8 
2   d(5d)5d(5d8.)5d(5d8.)5d8(5d8)5d8 e(5e)5e(5e8.)5e(5e8.)5e8(5e8)5e8 d(5d)5d(5d8.)5d(5d8.)5d8(5d8)5d8 
2   d+(5d+)5d+(5d+8.)5d+(5d+8.)5d+8(5d+8)5d+8 d(5d)5d(5d8.)5d(5d8.)5d8(5d8)5d8 ] 

;End

;*-*-* Chord 2 *-*-*

3   v10 o3 q8 
3   r4 r8g(5g8.)5g(5g8.)5g8(5g8)5g8 
3   [3 g(5g)5g(5g8.)5g(5g8.)5g8(5g8)5g8 ] 
3   c(5c)5c(5c8.)5c(5c8.)5c8(5c8)5c8 b(5b)5b(5b8.)5b(5b8.)5b8(5b8)5b8 g(5g)5g(5g8.)5g(5g8.)5g8(5g8)5g8 
3   f(5f)5f(5f8.)5f(5f8.)5f8(5f8)5f8 c(5c)5c(5c8.)5c(5c8.)5c8(5c8)5c8 b(5b)5b(5b8.)5b(5b8.)5b8(5b8)5b8 

3   [2 [ g(5g)5g(5g8.)5g(5g8.)5g8(5g8)5g8 ] c(5c)5c(5c8.)5c(5c8.)5c8(5c8)5c8 
3   b(5b)5b(5b8.)5b(5b8.)5b8(5b8)5b8 g(5g)5g(5g8.)5g(5g8.)5g8(5g8)5g8 f(5f)5f(5f8.)5f(5f8.)5f8(5f8)5f8 
3   c(5c)5c(5c8.)5c(5c8.)5c8(5c8)5c8 [3 b(5b)5b(5b8.)5b(5b8.)5b8(5b8)5b8 ] 
3   [ g(5g)5g(5g8.)5g(5g8.)5g8(5g8)5g8 ] [ c(5c)5c(5c8.)5c(5c8.)5c8(5c8)5c8 ] 
3   [ f(5f)5f(5f8.)5f(5f8.)5f8(5f8)5f8 ] [4 g(5g)5g(5g8.)5g(5g8.)5g8(5g8)5g8 ] 
3   [ c(5c)5c(5c8.)5c(5c8.)5c8(5c8)5c8 ] [ f(5f)5f(5f8.)5f(5f8.)5f8(5f8)5f8 ] 
3   [4 g(5g)5g(5g8.)5g(5g8.)5g8(5g8)5g8 ] c(5c)5c(5c8.)5c(5c8.)5c8(5c8)5c8 
3   b(5b)5b(5b8.)5b(5b8.)5b8(5b8)5b8 g(5g)5g(5g8.)5g(5g8.)5g8(5g8)5g8 
3   f(5f)5f(5f8.)5f(5f8.)5f8(5f8)5f8 c(5c)5c(5c8.)5c(5c8.)5c8(5c8)5c8 b(5b)5b(5b8.)5b(5b8.)5b8(5b8)5b8 ] 

;End

;*-*-* Bass *-*-*

D   v14 \0 
E   v15 \0 
H   v9  \2 
ED  r4
H   r4 c>c16< 
DEH [ [4 c>c< ] ]

DEH [2 [ [4 c>c< ] [4 d+>d+< ] [4 f>f< ] [4 g>g< ]
DEH [4 c>c< ] [4 a+>a+< ] [4 g+>g+< ] [4 g>g< ] ]
DEH [ [4 g>g< ] ] [ [4 c>c< ] ]
DEH [ [4 g+>g+< ] ] [ [4 a+>a+< ] ]
DEH [4 [4 c>c< ] ]
DEH [ [4 g+>g+< ] ] [ [4 a+>a+< ] ]
DEH [ [4 c>c< ] ] ]

;End

DEH [4 c>c< ] [4 d+>d+< ] [4 f>f< ] [4 g>g< ]
DE  [4 c>c< ] [4 a+>a+< ] [4 g+>g+< ] [4 g>g< ]
H   [4 c>c< ] [4 a+>a+< ] [4 g+>g+< ] g>g<g>g<g>g<g16

;*-*-* Drums *-*-*

;1   r1 v10 /2n0 [ cr2... ]
;1   cr8.cr2r8. [0 [3 r4cr2r8. ]
;1   [4 r4cr2r8. ]
;1   /2s1m1000n5 [4 [ r4cr8. ] ]
;1   [4 [ r4cr8. ] ]
;1   [4 [ r4cr8. ] ]
;1   [4 [ r4cr8. ] ]
;1   [4 [ r4cr8. ] ]
;1   [4 [ r4cr8. ] ]
;1   [ [ r4cr8. ] ] v10 /2n0 r4cr2r8. ]

1   o3 q8 @\5 r4 
1   *h00v0e r8e(3e8.)3e(3e8.)3e8(3e8*h00e 
1   e(3e)3e(3e8.)3e(3e8.)3e8(3e8*h00e e(3e*h00(3e8.)3e(3e8.)3e8(3e8)3e8 a+(3a+*h00(3a+8.)3a+(3a+8.)3a+8(3a+8)3a+8 
1   a(3a*h00(3a8.)3a(3a8.)3a8(3a8)3a8 d(3d*h00(3d8.)3d(3d8.)3d8(3d8)3d8 e(3e*h00(3e8.)3e(3e8.)3e8(3e8)3e8 
1   d(3d*h00(3d8.)3d(3d8.)3d8(3d8)3d8 d+(3d+*h00(3d+8.)3d+(3d+8.)3d+8(3d+8)3d+8 d(3d*h00(3d8.)3d(3d8.)3d8(3d8)3d8 

1   [2 e(3e*s00(3e8.)3e(3e8.*s00e(3e8)3e8 a+(3a+*s00(3a+8.)3a+(3a+8.*s00a+(3a+8)3a+8 a(3a*s00(3a8.)3a(3a8.*s00a(3a8)3a8 
1   d(3d*s00(3d8.)3d(3d8.*s00d(3d8)3d8 e(3e*s00(3e8.)3e(3e8.*s00e(3e8)3e8 d(3d*s00(3d8.)3d(3d8.*s00d(3d8)3d8 
1   d+(3d+*s00(3d+8.)3d+(3d+8.*s00d+(3d+8)3d+8 [3 d(3d*s00(3d8.)3d(3d8.*s00d(3d8)3d8 ] 
1   [ e(3e*s00(3e8.)3e(3e8.*s00e(3e8)3e8 ] [ d+(3d+*s00(3d+8.)3d+(3d+8.*s00d+(3d+8)3d+8 ] 
1   [ d(3d*s00(3d8.)3d(3d8.*s00d(3d8)3d8 ] [4 e(3e*s00(3e8.)3e(3e8.*s00e(3e8)3e8 ] 
1   [ d+(3d+*s00(3d+8.)3d+(3d+8.*s00d+(3d+8)3d+8 ] [ d(3d*s00(3d8.)3d(3d8.*s00d(3d8)3d8 ] 
1   [ e(3e*s00(3e8.)3e(3e8.*s00e(3e8)3e8 ] 
1   e(3e*h00(3e8.)3e(3e8.)3e8(3e8)3e8 a+(3a+*h00(3a+8.)3a+(3a+8.)3a+8(3a+8)3a+8 a(3a*h00(3a8.)3a(3a8.)3a8(3a8)3a8 
1   d(3d*h00(3d8.)3d(3d8.)3d8(3d8)3d8 e(3e*h00(3e8.)3e(3e8.)3e8(3e8)3e8 d(3d*h00(3d8.)3d(3d8.)3d8(3d8)3d8 
1   d+(3d+*h00(3d+8.)3d+(3d+8.)3d+8(3d+8)3d+8 d(3d*h00(3d8.)3d(3d8.)3d8(3d8)3 | d8 ]

;End

;*-*-* Explosion *-*-*

123 o2v15@e25l16
1   n31a&n25a&n20a&n15a8& [25 n28a&n25a&n23a&n20a&n15a& ]
2   n31c%2c1&c1&c1
3   n31c%5c1&c1&c1

239ABCDEFGH r1r1r4..

;*-*-* Voice B (Game Over) *-*-*

9 @30@e31hfQ0L%2\0
a @30@e31hfQ0L%2\0 
b @30@e31hfQ0L%2\0
c @30@e31hfQ0L%2\0

9 R%2V4O5FV9BR%2V13DV15C+%3AA+O6CV14O2GV13O3C%3V11O5GV9O7EV8EV9O6E
a R%2V3O5EV7O6BV8O5FV12C+V14G+%3DAV13AO3F+V12O5F+%3R%4V8O6FR%2
b R%2V4O5F+V7O7EV6EV12O5A+V13B%3V14O4A+V13O5D+V11F+V12O3BV13O2G+%3V9O7EV7FO1DV6O7E
c R%2V2O5GV3O7A+V5O5EV12AO4G+%3D+V13O6CV11DO5A+A%3V8O2C+V6CV7O7EV6O6F
9 R%27V13O5D+V15EB%3
a V3O2D%3DV1DR%7V0DV1DDD%3DDV12O5AV14AV15F%3
b V0O4C+%3V1O2GR%22V11O6CV13CV14O5C+%3
c R%27V11O5EV12FO4A%3
9 C+G+GV12O7EV10O5F%3V12FF+V10GV8O7C+D+%3O1C+V9FR%7
a G+V14DV12O7ER%2V9O5E%3V7O7FV9O5FV8G+V7O7DV6G%3V7O2C+V8O1BV2O2DV0DR%3
b A+A+R%2V11O7FV9O5F+%3V5O7AV7FV8O5F+V6O7GE%3V7D+R%9
c V14BO5F+V6O7AV9D+V8E%3V4BV7O5G+O7EV5DD%3V6GV4O3ER%7
9 R%6V7O6F+%3V8O7DV14O5BV15D+EE%3FV14AV9O7D+V10O5FF%3O6G
a R%6V7O7D%3V8O6F+V14O5FV15O6CCC%3V14O5BV11G+V5O7AV9O5F+V10G%3V8O7E
b R%6V6O6F+%3V8CV14O5EFA+V12A+%3V14EV11A+R%2V8O7ED%3V7O6F+
c R%6V7O7D%3V8O5BV13D+GV11O7FV12E%3V14O5A+V10GV5O7AV8O5D+O7D+%3V6O6G
9 V7FR%18CV11CV15O5D+G+A%3F+
a V6O6FV2O2DV1DR%14V7O6C+V8O7DV15O5BBB%3G
b V6O7EV0O2GR%16V7O6CO5BV14F+V15D+V13F+%3E
c O7ER%18V5O6DV6C+V13O5AV14DV13O6C+%3V12O5A
9 F+GF+%3V12FV9O7DV10O6GR%2V12O1E%3V11O6C+R%2V15O1FR%9
a G+V13AV11G%3ER%2V10O1FV9O2DV10O1A+%3O7DV11O2AV13O1AV9O2DD%3V8DV7D
b FV11BV10F%3O7D+V6A+V8FO6GR%5V10DV9O3D+V7O2G+V6G%3V5GG
c V13A+V12EV9G+%3V10GV6O7A+V9O1A+V8O6GV6O3E%3O7A+V10O2DV8G+R%9
9 R%2V12O5G+V15E%3FEG+GV12F%3V13AV10AV11O1FR%9
a V6DV12O5AV13D%3C+V14GV13GV12G+G%3V11O6G+V9O5A+O1FV6O2DV5D%3V4DV3D
b V3GV11O5GV13F+%3V12G+C+F+FV10O7D%3V9FO1D+V6O2F+V4GV3G%3V2GV1G
c R%2V9O5A+V11C+%3O4BV12O7FO5A+V10EC%3V9A+O6G+V5O3F+R%9
9 R%13O5B%3V15FF+AG+V14G+%3V12G+V11O6EV13O1E
a V2DV1D%3R%8V10O6C%3V14O5F+V15AGV11O6A+V10O7C%3V11O5AO7DV12O2A
b V0GR%11V10O5F%3V12D+V13BV12FV11AA%3O7CV8O6D+R%2
c R%13V9O5E%3V10DV12C+V11A+V13GV10G%3V9F+V8O7F+V10O3A
9 R%29V10O6C+V13O5G+
a V8DV7D%3V6DV5DV3DV2DV0D%3R%8D%3DV10O7D+V12O5G
b V5O2GV4G%3V3GV2GV1GR%18V9O6C+V11O5A
c R%29V9O7D+V10O5F+
9 V15G+%3AV14AV15GV13BR%22
a V10A+%3V15G+V14GV13AV11O7C+V10O5B%3V6O2DV5DV4DV3DV1D%3V0DR%6
b V9O7E%3V12O5FF+EV11A+V9O6C%3V4O2F+V3GV2GV0GR%11
c V9F%3V11BD+BV9AO2F+%3R%19
9 R%11V7O7C%3V11CV12O5AA+O6CR%7O4AV15A%3
a R%11V7O7C%3V10EV11C+O5AV10O7EV9O2E%3V8CO7D+V12O1EV15O5C%3
b R%11V7O6B%3O7BV9F+V11O5BV9O7FV6O3F%3O6G+V8AV12O2CV14O4F+%3
c R%11V6O7C%3V5EV4O5A+V10O6CV8CV7O4F%3V6O6G+O2CV11O4G+V12O5D%3
9 AA+AA+A+%3BA+D+V14EV15O3D%3D+D+D+EE%3
a V14DV15D+V14D+R%2V11O6G%3O5C+V14D+DD+V12O4D+%3V13D+O5GGV14O4EV15D+%3
b V13O6DV14O4D+O5CV8D+V10O6F%3V11O4G+V12D+V13O5D+V15O4CV10B%3V12O5GV13O4D+D+O5A+V14A+%3
c O4DV13O5CO4D+V8D+O5D+%3V11O6GO3D+V13O4G+V14A+V12O3F+%3V11O5A+V10A+V13A+O4C+V12O5G%3
9 DR%4O4F+O5A+%3O6CCV14O5AV15AA+%3V14O6DV15C+O3DO6F%3V14E
a D+V14O2DV12O4G+V15O5AV13O6C%3O5AV12O6DV13O5BV10A+V12B%3V13O6CO4CV15O6D+V14O3D+%3V12O6D+
b GV13O2A+O4GC+O5A%3V11O6DV10O5AV13A+V10G+O6C%3V12O5A+O3G+V14O4C+O3F+%3V10O6D+
c V13A+O4AV11O5F+GV13O4G+%3V11O5BV9O7FV12O6CV9O5FV10G+%3V11O6D+V12O4DR%2V13O6E%3V11G+
9 G+V15O5CO4A+B%3BA+AAA%3EEEEE%3F
a O7C+V14O5DEV15O4E%3V13O6AV14O5D+V15DV14DC%3V13O4BV12BV14G+V12BO6G%3V13G
b V8O7AV13O4A+O6A+A%3O4DO6A+V14O4DV13O5CO4G%3V11O6BV12BV13A+V12A+V11O4B%3V10O6A
c V7AV13AAO3E%3O5C+O4D+O3D+O6A+V12A+%3V11O3EO6AV12O4CO6BV11A+%3V9F
9 FEEE%3EEO3EO6C+D%3DC+O3EO6G%3GG+
a O3FV15FEE%3EFO5G+V14O6CO5B%3V12O7DV15O3F+O5BV14O7C+%3V13DD
b V12DO4A+V13BV12B%3BV11BV15O5EV14O3F+V12O5G+%3V11O7D+V14O5BO4EV12O6F+%3AF+
c V12O4BO2GV11O5EE%3O4C+F+V12D+V13O5GV11O6E%3R%2V14O4C+V12O6DR%3G+V10A+
9 O4F+EF%3O3EO4F+FFF%3FEEFF+%3F+G
a V14O4BV13O3A+F%3V15O4FO3EV13O6A+O5CV12C%3R%2V15G+V14O3D+V15FV12O4D%3V13C+V15B
b V14O4D+V13AV12O5C%3V13O3A+V15AR%2V12FO4G%3V8O7CV12O3FV13O5G+R%5V12O4A+V14D
c V13O3EV12O5CV11F%3R%2V13O4C+V10O2CV12O4G+D+%3V8O5CV11O4BV12O3G+V11O4EG+%3V12O5C+D
9 FGG%3GG+GO5A+O6C+%3CO3F+GF%3F+FG
a AV12A+V13O5D%3DV14O4FV15O5GV14O6C+O5A+%3V13O6D+V15C+V14CV15O5A+%3V13O6DDV11D
b BV11FO3G%3GV14O5G+BO6DV13O5A%3V12AV14O6DO5BO6C+%3V13O4GF+R%2
c V13O4DV11O5C+G%3GV14AV12DV13F+V12O6D%3V10O5FV12O2C+V13O6DV14O4F%3V12O5BV13O3A+V8O2C
9 V12A+R%3V8O6GV9GV10GV15FF%3O3AFFGF+%3FFV14G
a O3F+V7O7D+%3V6FF+V12O6FV15O5A+O4C+%3V14O6ED+V15DV14DV15O4C+%3DV13FV12O2D+
b V11C+V6O7D%3O6FV5GV12FV13O5G+V14O3D+%3O4DF+V13C+O6C+V15C+%3V13O2BO1D+R%2
c R%2V6O6F+%3R%2V4O7A+V12O6F+V11EV14E%3O3DV13O6EV12O2EV13O6D+V14O2E%3V13O3A+O2DV9O4D+
9 V11O7ER%7V8O6FV9C+R%18V10F
a R%2V7O7E%3D+O6EO7CC+V6O2E%3R%2V0DV2DD%3V3DDV5C+V10O6A+
b V11O4DV8O2D%3V6CO6BEO7CV7O6C+%3R%6V0O2G%3GGV4G+V9O7G
c V10CV4O7A%3V6D+CO6BV4O7CV7O6C+%3R%13V4D+R%2
9 R%3V9O1D+R%13V14O4D+V15F+B%3O5ABO3FD+
a V8E%3V7O2C+V6DDV5DV4D%3V3DV2DV13O4FV14O5C+V15O4G+%3O5BO3BO6CV14E
b V7O6E%3V5O3CV4O2GV3GV2GV1G%3GV0GV12O3BV14O5CV13O4D+%3V14O5G+V15O3GV14O6D+V13D
c V7D+%3V4O3AR%13V12O7C+V14O3BV12O5D%3O7D+V14O5A+O4FV13O3A
9 O6D+%3D+D+V14C+C+D%3V13D+V12EFF%3V11FO5BV9BR%5
a E%3V15DV14DDV12O7EF%3O6EV10O7EV9FV8F%3V9O6F+V10G+V8O5A+V0O2DR%3
b V14O3D%3V13O7D+EER%2V9O6D+%3V12DV10FV7F+V8F+%3O7FV7EV8O6G+R%5
c V14F+%3V12O6C+V13DD+V7DR%3V10DV9D+V5O7A+V7O6F%3V8EV6O2GV8O6GR%5
9 R%33
a R%33
b R%33
c R%33
9 R%4  ;TOTAL R%732
a R%4  ;TOTAL R%732
b R%4  ;TOTAL R%732
c R%4  ;TOTAL R%732

#end