;[gain=1.0 name=BC_BLAST duration=300s fade=5s cpu=0 lpf=0]
; The line above defines extra options, works only on msxplay.com 
; name    : Name of mml, use as the base download filename.
; gain    : Volume gain. (default: 1.0)
; duration: Maxiumum play duration. (default: 300s)
; fade    : Time of fading out. (default: 5s)
; cpu     : CPU speed ratio. 0:auto, 1:3.58MHz (default: 0)
; lpf     : Low-pass filter. 0:off, 1:on (default: 0)
; loop    : Number of global loops. (default: 2). 
;           Note that duration takes precedence over loop.

; Version 1.00
;
;   1.00 : 公開

;*-*-* Initial setting

#opll_mode  0
#machine_id 2
#lfo_mode   0
#title  {   "Bosconian << BLAST POWER >>"
            "MGS Arranged by Takawo"    }

#alloc {
        0 = 1121,
        1 = 2907,
        2 = 248,
        3 = 258,
        4 = 1202,
        5 = 925,
        6 = 213,
        7 = 195,
        8 = 199,
        9 = 434,
        A = 454,
        B = 551,
        C = 548,
        D = 368,
        E = 724,
        F = 2302,
        G = 1478,
        H = 2146 }

#tempo      140

;*-*-* Tone setting

@e11 = { ,,fea=10.0=60 } ;Snare Drum (OPLL)
@e05 = { 3,5,d.n10.b.n25.a.n11.9.n23.9.n11.9.n21.9.n11.8.n19.8.n12.8.n17.8.n12.7.n15.7.n13.6.n13.6.n13.5.n11.5.n13.4.n9.4.n14.3.n7.3.n14.2.n5.2.n14.1.n3.10 } ;Snare Drum (PSG)
@e06 = { 2,25,f } ;Bass Drum (PSG)
@e07 = { ,,@28.a@27.60 } ;Hi Hat (Close & Open) (SCC)
@e08 = { ,,fb0 } ;Hi Hat (lose & Open) (OPLL)
@e15 = { 2,5,c.n0.96:5.0 } ;Hi Hat (Close) (PSG)
@e01 = { ,,@28.c@27.c7=17 } ;Hi Hat (Open) (SCC)
@e04 = { 2,10,d.n0.c } ;Hi Hat (Open) (PSG)
@e09 = { ,,8f5=8 } ;Tam tam (OPLL)
@e18 = { ,,f:4.0=15 } ;Tam tam (OPLL)
@e10 = { ,,@26c0 } ;Tam tam & Snare Drum (SCC)
@e02 = { 2,20,8.n4.870=9 } ;Tam tam 2 (PSG)
@e12 = { ,,@28.f:2@27.e@28.e@27.e@28.d@27.d@28.d@27.c@28.c@27.c@28.b@27.b@28.b@27.a@28.a@27.a@28.9@27.9@28.9@27.8:2.7@28.76:2@27.5:2.4@28.43:2@27.2:2.1@28.1:2.0 } ;Cymbal (SCC)
@e14 = { 3,30,f.n20.d./2.n4.d/3.c/2.b/3.n2./2.0=70 } ;Cymbal (PSG)

@e16 = { ,,\-15.9\10.f\5.e:4.c=3.b:15.3=150 } ;Bass (OPLL)
@e20 = { ,,\-15.@20.f\10.@21d\5.@22de@23.e:2.c:2.@24.b:2.@25.2=25 } ;Bass (SCC)
@e23 = { ,,f0=30 } ;Electric Piano 1 (OPLL)
@e24 = { ,,@04.fed:2.c:2.@05.b:2.a:3.@06.9:3.8:2.@07.8:2.7:3.@08.6:3.@09.1=95 } ;Electric Piano 2 (SCC)
@e25 = { ,,    fed:2.c:2.    b:2.a:3.    9:2.8:6.        7:4.        6:3.1=85 } ;Electric Piano 2 (SCC)
@e26 = { ,,@04.fed:4.@05.d:6.@06.c:6.@07.c:6.@08.b:6.@09.8=127 } ;Electric Piano 3 (SCC)
@e27 = { ,,    fed:10.           c:9.            b:6.    8=120 } ;Electric Piano 3 (SCC)
@e28 = { ,,@6d@7.fe } ;Electric Piano 3 (OPLL)

@e21 = { ,,b7 } ;Hand Clap (PSG)
@e22 = { ,,@1.c@2.b@3.7.0=7 } ;Cowbell (SCC)

@e31 = { ,,f } ;Clear Envelope

@s01 = { 29 7F 6F C4 E6 74 C5 35 63 CC 82 96 F4 8E 39 6F AE 94 6E E8 48 6F 4C 87 A1 46 81 A3 BC 80 9D F6 }  ;Cowbells (morphing 1)
@s02 = { 40 20 B5 39 7F 5A 6E 5C ED 9E E4 B9 93 9C DF 80 C3 49 59 30 45 5B F3 3A 36 F0 9C A0 B3 9F D1 ED }  ;Cowbells (morphing 2)
@s03 = { 3E 6D 5C 54 77 42 67 F8 54 B9 80 94 8C 9B DE 03 DA 36 7F 60 6F 69 2D C1 A7 FA 96 94 B1 CB 92 27 }  ;Cowbells (morphing 3)

@s04 = { FE 7F 44 2D 0F 06 64 26 76 65 6F 5C FF 84 D8 2E 04 EE 2B 6F E3 80 95 8F AD D2 A3 0E EB C3 AB 9C }  ;Electric Piano 2 & 3 (morphing 1)
@s05 = { 2A 7A 2B 38 18 0C 5A 52 78 5B 58 54 F6 84 D2 36 2E 08 2E 60 CC 82 D1 D8 F8 1D C4 C7 C1 B5 B3 C8 }  ;Electric Piano 2 & 3 (morphing 2)
@s06 = { 57 75 12 44 21 11 50 7F 79 51 40 4B EC 85 CD 3E 57 23 30 52 B4 85 0D 22 43 68 E6 80 97 A7 BB F3 }  ;Electric Piano 2 & 3 (morphing 3)
@s07 = { 34 5C 40 14 28 2C 3C 5E 7A 5E 34 09 D4 92 A6 E8 0D 0C 00 00 B2 8D 0E 50 5E 6E 2B EF BC AE D8 FA }  ;Electric Piano 2 & 3 (morphing 4)
@s08 = { 10 42 6F E4 30 48 27 3E 7C 6C 27 C7 BC A0 80 91 C3 F4 D1 AD AF 95 10 7F 78 73 70 5E E1 B5 F4 00 }  ;Electric Piano 2 & 3 (morphing 5)
@s09 = { 19 7A 2B 10 FC DB CB 52 7F 75 73 67 32 80 A6 A0 BA CB AF 86 9D 8A B8 D4 25 79 6C 48 2B 40 2B 0C }  ;Electric Piano 2 & 3 (morphing 6)

@s20 = { 54 C3 4E 7A 50 63 69 62 2D 6C 48 B8 84 EC 95 C5 A2 7F 58 74 29 40 D8 8E A2 8C 9C A4 D7 08 80 D7 }  ;Bass Guitar (morphing 1)
@s21 = { 34 4B 63 15 7F 3B 54 7C 3C 4F 6A 5F 64 4A 63 51 0E 3D 64 38 BD 1E D0 AD 0E 80 84 DC A6 90 97 E3 }  ;Bass Guitar (morphing 2)
@s22 = { 37 71 75 5F 31 05 D7 B9 A3 89 81 87 9C A7 BC D9 E6 06 22 36 4F 64 70 72 67 55 2E 13 C2 92 86 9C }  ;Bass Guitar (morphing 3)
@s23 = { 2C 70 78 69 36 07 D4 B6 9C 86 81 87 96 A1 B1 CA D9 F5 0F 22 3C 57 6B 76 6F 61 2F 14 C6 8F 89 99 }  ;Bass Guitar (morphing 4)
@s24 = { 20 70 7C 74 3C 0A D2 B3 96 83 82 88 91 9A A6 BB CB E5 FD 0D 28 49 66 79 77 6D 30 14 CB 8D 8B 97 }  ;Bass Guitar (morphing 5)
@s25 = { 14 70 7F 7F 42 0D D0 B0 8F 80 82 88 8B 93 9B AC BD D4 EB F8 14 3C 61 7D 7F 79 31 14 D0 8B 8D 95 }  ;Bass Guitar (morphing 6)

@s26 = { 28 78 7F 58 40 70 7F 50 B0 81 98 C8 90 81 A0 D8 58 7F 70 60 38 68 7F 50 C8 81 A0 C8 90 81 A8 C8 }  ;Snare Drum

@s27 = { 48 7F 98 81 C8 7F 68 81 A8 7F 38 81 B0 78 40 90 B8 68 38 A0 E0 60 30 B0 D0 48 20 C0 E8 38 18 D8 }  ;Hi Hat (morphing 1)
@s28 = { 28 7F 60 A0 81 88 7F 58 A8 81 48 7F 98 B8 68 38 A8 C8 50 28 90 B0 F0 7F 48 81 C0 68 30 D0 A8 F0 }  ;Hi Hat (morphing 2)

@#15 = 0

@v16 = {                        ;Electric Piano 1
;   TL FB
    28, 0,
;   AR DR SL RR KL MT AM VB EG KR DT
    15, 0, 0,15, 0, 2, 0, 0, 1, 0, 0,
    15, 0, 0,15, 0, 2, 0, 0, 1, 0, 0 }

@v17 = {                        ;Synthesizer 1
;   TL FB
    48, 7,
;   AR DR SL RR KL MT AM VB EG KR DT
    15, 0,15,15, 0, 4, 0, 0, 1, 0, 0,
    15, 0,15,15, 0, 2, 0, 0, 1, 0, 1 }

@v18 = {                        ;Synthesizer 2 (Strong Attack)
;   TL FB
    27, 0,
;   AR DR SL RR KL MT AM VB EG KR DT
    15, 0, 1, 1, 1, 4, 0, 0, 1, 0, 1,
    15, 0,15,15, 0, 2, 0, 0, 1, 1, 0 }

@v19 = {                        ;Synthesizer 2 (Weak Attack)
;   TL FB
    27, 0,
;   AR DR SL RR KL MT AM VB EG KR DT
    15, 0, 1, 1, 1, 4, 0, 0, 1, 0, 1,
     8, 0,15,15, 0, 2, 0, 0, 1, 1, 0 }

;*-*-* Macro settings

#macro_offset { b = 00,
                s = 20,
                h = 60,
                o = 80,
                t = 80,
                m = 90,
                l = 100,
                c = 120,
                w = 190,
                k = 200 }

;a1  = a%192
;a2  = a%96
;a4  = a%48
;a8  = a%24
;a16 = a%12
;a32 = a%6
;a64 = a%3

;a3  = a%64
;a6  = a%32
;a12 = a%16
;a24 = a%8
;a48 = a%4

;*x00 #4  | *x05 #8 | *x10 #16 | *x15 #32 | *x20 #8.
;*x25 #16 | *x30 #8 | *x35 #8. (Low Volume)

;Bass Drum : b
;#8
*05 = { o3 v14 b_<b%4v0r%20 } ;F
*06 = { r8 } ;G
*07 = { o1 @15 b_c48@0c%8@14c%12 } ;H
*08 = {    @e06 s1m150 c8 } ;1
*09 = { r8 } ;4
;#16
*10 = { o3 v14 b_<b%4v0r%8 } ;F
*11 = { r } ;G
*12 = { o1 @15 b_c48@0c%8 } ;H
*13 = {    @e06 s1m150 c } ;1
*14 = { r } ;4
;#32
*15 = { o3 v14 b_<b%4v0r%2 } ;F
*16 = { r32 } ;G
*17 = { o1 @15 b_c48@0c%2 } ;H
*18 = {    @e06 s1m150 c32 } ;1
*19 = { r32 } ;4

;Snare Drum : s
;#4
*20 = { o5      v15 d+_o3d+%4v10r%44 } ;F
*21 = {    @e11 v15 d32r8.. v11 } ;G
*22 = { o2      @15 c@1c@10 r8. } ;H
*23 = { o3 /2n10 s1m300 c%2 v15@e05 c%22^8 o1 } ;1
*24 = { o2 @e10     b4 } ;4
;#8
*25 = { o5      v15 d+_o3d+%4v10r%20 } ;F
*26 = {    @e11 v15 d32r. v11 } ;G
*27 = { o2      @15 c@1c@10 r16 } ;H
*28 = { o3 /2n10 s1m300 c%2 v15@e05 c%22 o1 } ;1
*29 = { o2 @e10     b8 } ;4
;#16
*30 = { o5      v15 d+_o3d+%4v10r%8 } ;F
*31 = {    @e11 v15 d32r32 v11 } ;G
*32 = { o2      @15 c@1c } ;H
*33 = { o3 /2n10 s1m300 c%2 v15@e05 c%10 o1 } ;1
*34 = { o2 @e10     b } ;4
;#32
*35 = { o5      v15 d+_o3d+%4v10r%2 } ;F
*36 = {    @e11 v15 d32 v11 } ;G
*37 = { o2      @15 c } ;H
*38 = { o3 /2n10 s1m300 c%2 v15@e05 c%4 o1 } ;1
*39 = { o2 @e10     b32 } ;4
;#8.
*40 = { o5      v15 d+_o3d+%4v10r%32 } ;F
*41 = {    @e11 v15 d32r8^32 v11 } ;G
*42 = { o2      @15 c@1c@10 r8 } ;H
*43 = { o3 /2n10 s1m300 c%2 v15@e05 c%34 o1 } ;1
*44 = { o2 @e10     b8. } ;4
;#16 (Low Volume)
*45 = { o5      v13 d+_o3d+%4v8r%8 } ;F
*46 = {    @e11 v13 d32r32 v11 } ;G
*47 = { o2      @1  c@3c } ;H
*48 = { o3 /2n10 s1m250 c%2 v13@e05 c%10 o1 v15 } ;1
*49 = { o2 @e10 v14 b v15 } ;4
;#8 (Low Volume)
*50 = { o5      v13 d+_o3d+%4v8r%20 } ;F
*51 = {    @e11 v13 d32r. v11 } ;G
*52 = { o2      @1  c@3c@11 r16 } ;H
*53 = { o3 /2n10 s1m250 c%2 v13@e05 c%22 o1 v15 } ;1
*54 = { o2 @e10 v14 b8 v15 } ;4
;#8. (Low Volume)
*55 = { o5      v13 d+_o3d+%4v8r%32 } ;F
*56 = {    @e11 v13 d32r8^32 v11 } ;G
*57 = { o2      @1  c@3c@11 r8 } ;H
*58 = { o3 /2n10 s1m250 c%2 v13@e05 c%34 o1 v15 } ;1
*59 = { o2 @e10 v14 b8. v15 } ;4

;Hi Hat (Close) : h
;Initial setting
*64 = { o7 @e07 } ;4
;#8
*65 = { r8 } ;F
*66 = { @e08 c8 } ;G
*67 = { r8 } ;H
*68 = { @e15 c8 } ;1
*69 = {      d8 } ;4
;#16
*70 = { r } ;F
*71 = { @e08 c } ;G
*72 = { r16 } ;H
*73 = { @e15 c } ;1
*74 = {      d } ;4
;#32
*75 = { r32 } ;F
*76 = { @e08 c32 } ;G
*77 = { r } ;H
*78 = { @e15 c32 } ;1
*79 = {      d32 } ;4

;Hi Hat (Open) : o
;#8
*85 = { r8 } ;F
*86 = {    @e08 c8 } ;G
*87 = { r8 } ;H
*88 = {    @e04 c8 } ;1
*89 = { o7 @e01 d8 @e07 } ;4

;Tam tam (High) : t
;#16
*90 = { o4 @e18 v14 e @e31 } ;F
*91 = { o2 @e09     e o1 } ;G
*92 = { o2      @0  e_<e@14r } ;H
*93 = { o3 /2n10 s1m200 c%4 v15@e02 c%8 o1 } ;1
*94 = { o2 @e10 e } ;4
;#32
*95 = { o4 @e18 v14 b32 @e31 } ;F
*96 = { o2 @e09     b32 o1 } ;G
*97 = { o2      @0  b_<b@14 } ;H
*98 = { o3 /2n10 s1m200 c%4 v15@e02 c%2 o1 } ;1
*99 = { o2 @e10 b32 } ;4

;Tam tam (Middle) : m
;#16
*100 = { o4 @e18 v14 c @e31 } ;F
*101 = { o2 @e09     c o1 } ;G
*102 = { o2      @0  c_<c@14r } ;H
*103 = { o3 /2n10 s1m200 c%4 v15@e02 c%8 o1 } ;1
*104 = { o2 @e10 c } ;4
;#32
*105 = { o4 @e18 v14 c32 @e31 } ;F
*106 = { o2 @e09     c32 o1 } ;G
*107 = { o2      @0  c_<c@14 } ;H
*108 = { o3 /2n10 s1m200 c%4 v15@e02 c%2 o1 } ;1
*109 = { o2 @e10 c32 } ;4

;Tam tam (Low) : l
;#16
*110 = { o3 @e18 v14 g @e31 } ;F
*111 = {    @e09     g } ;G
*112 = { o1      @0  g_c@14r } ;H
*113 = { o3 /2n10 s1m200 c%4 v15@e02 c%8 o1 } ;1
*114 = { o1 @e10 g } ;4
;#32
*115 = { o3 @e18 v14 g32 @e31 } ;F
*116 = {    @e09     g32 } ;G
*117 = { o1      @0  g_c@14 } ;H
*118 = { o3 /2n10 s1m200 c%4 v15@e02 c%2 o1 } ;1
*119 = { o1 @e10 g32 } ;4

;Cymbal : c
;#4
*120 = { r4 } ;F
*121 = {    @e31 v14 c32r8.. v11 } ;G
*122 = { o1      @15 g4 } ;H
*123 = { o7 @e14     g4 o1 } ;1
*124 = {    @e12     d4 @e07 } ;4
;#8
*125 = { r8 } ;F
*126 = {    @e31 v14 c32r. v11 } ;G
*127 = { o1      @15 g8 } ;H
*128 = { o7 @e14     g8 o1 } ;1
*129 = {    @e12     d8 @e07 } ;4
;#16
*130 = { r } ;F
*131 = {    @e31 v14 c32r32 v11 } ;G
*132 = { o1      @15 g16 } ;H
*133 = { o7 @e14     g o1 } ;1
*134 = {    @e12     d @e07 } ;4
;#32
*135 = { r32 } ;F
*136 = {    @e31 v14 c32 v11 } ;G
*137 = { o1      @15 g } ;H
*138 = { o7 @e14     g32 o1 } ;1
*139 = {    @e12     d32 @e07 } ;4
;#8.
*140 = { r8. } ;F
*141 = {    @e31 v14 c32r8^32 v11 } ;G
*142 = { o1      @15 g8. } ;H
*143 = { o7 @e14     g8. o1 } ;1
*144 = {    @e12     d8. @e07 } ;4
;#8. (Low Volume)
*155 = { r8. } ;F
*156 = {    @e31 v12 c32r8^32 v11 } ;G
*157 = { o1      @1  g8. } ;H
*158 = { o7 @e14 v13 g8. o1 v15 } ;1
*159 = {    @e12 v13 d8. @e07 v15 } ;4

;Cowbell
;#16
*190 = { @e22 o3 a o7 @e07 } ;4
;#32
*191 = { @e22 o3 a32 o7 @e07 } ;4

;Hand Clap : k
;#16
*200 = { @e21/3n30V15O5A/2n28O6FEO5A+O6C+R } ;1
*201 = { @e21/3V15O5GA+GO6F+EV6O2D } ;2
*202 = { @e21/3V15O5BFO6GO5BO6CV3A } ;3
;#8 (#16+#8)
*203 = { Rn25V10FV12O5G+O6EV11C+R } ;1
*204 = { V7C+V9O5GV10D+V11F+V10O6D+V8O5D } ;2
*205 = { V4O2A+V9O6F+V10O5A+V11BV10O6F+V8O5A+ } ;3
;#8. (#16+#8+#8.)
*206 = { RV7O1FR%8 } ;1
*207 = { V7O2C+V6ER%8 } ;2
*208 = { V3O2A+R%10 } ;3

;*-*-* MML

;56789abcde ! ;ドラム
;6789abcd ! ;ベース&ドラム
;456789abcdefgh ! ;PSG Only
;1239abcdefgh ! ;SCC Only
;12345678 ! ;OPLL only

;*-*-* Initialization *-*-*

9           l16   r1 so ;Main (OPLL) 
A           l16   r1 so ;Main (OPLL) 
B           l16   r1 so ;Main (OPLL) 
C           l16   r1 so ;Main (OPLL) 
D           l1    r1 so ;Main (OPLL) 

6                 r1 k1 ;Sub (SCC) 
7                 r1 k1 ;Sub (SCC) 
8                 r1 k1 ;Sub (SCC) 

E   @10 @e16 q8 l16 o2 v0r1 v15 sf      ;Bass (OPLL) 
5       @e20 q8 l16 o1 v0c1 v15 k0 @\1  ;Bass (SCC) 

;F : Bass Drum
;G : Snare & Hi Hat
;H : cymbal & Tom-tom

;G track Volume setting
;  v(0,1,2...,15) : Snare / @(14,13,12...,0,15) : Hi Hat
;H track Volume setting
;  v(0,1,2...,15) : cymbal / @(14,13,12...,0,15) : Tom-tom

F   y14,35 so q1 l16    r1 v15     @e31       ;Drums (OPLL) 
G          so q5 l16 o1 r1 v11 @14            ;Drums (OPLL) 
H          so q8 l32    r1 v15 @15 @e31       ;Drums (OPLL) 
4             q8 l16 o7 r1 v15     @e07 k0    ;Drums (SCC) 
1             q8 l16 o1 r1 v15          k0    ;Drums & Hand Clap (PSG) 
2             q8 l1     r1 v11          k0    ;Hand Clap (PSG) 
3             q8 l1     r1 v11          k0    ;Hand Clap (PSG) 

;*-*-* Main *-*-*

;A
9ABCD   [0

9   @16 @e31    v14 h15,3,0,4 o5 
A   @11 @e23    v13           o6 @\13 
B   @16 @e31 r8 v13 h15,3,0,4 o5 @\15 
C   @11 @e23 r8 v12           o6 @\23 

9ABC    b2.e8<ab^ e<ab4..&b_>e8&e8dc+^8
9ABC    dc+8f+8.b8.e8<a8>d c+eg+>c+<b>f+e<ba>ed<ag+>dc+<g+
BC      )
9ABC    [3 bf+e<b> (2 ]
9A      )6
BC      )5
9ABC    <b>ef+e b8.a8.>e&e_b&b8ba8ae8
9A      c+8.f+8.b8f+8.b8.>e8
BC      c+8.f+8.b8f+8.b8.>r8
D       r r r r r r r l16 

;B
9       v13 hf o4 
A   @17 v13 hf o5 @\25 
B       v12 hf o4 @\0  \1 
C   @17 v12 hf o5 @\25 \1 
D   @17 v13    o3 

9AD     b8.>c4^d8.)e4^ f+1^4d+2b4
BC      b8.>c4^d8.)e4  f+1^4d+2b4
9ABCD   f1& f1
9ABCD   f+1^4 d+4<b4>f+4
9AD     f1
BC      f2...
9AC     (2 <g>cegec<gea>df+af+d<af+
B       (  eg>cec<gecf+a>df+d<af+d 
D       (2 eg>cec<gecf+a>df+d<af+d 
9ABC    [7 r1 ]
D       [16 r1 ] 

9   @19 v13 h15,3,0,4 o4 
A       v12 h15,3,0,4 o6 @\0 
B       v11 h15,3,0,4 o4     \0
C       v10 h15,3,0,4 o6 @\0 \0

9A      r2. b@18>cdd+
BC      r2.^b   >cdd+
9ABC    [5 e<ba> ] <b [5 >f+e<b ] r
9       l24 >c+@18dd+e d+dc+d c+<b>c+<b l16 aedc+f+e<b>e c+32d32c+32d32c+8c+f+a+>c+f+<a+>c+f+a+c+f+a+ 
ABC     l24 >c+   dd+e d+dc+d c+<b>c+<b l16 aedc+f+e<b>e c+32d32c+32d32c+8c+f+a+>c+f+<a+>c+f+a+c+f+a+
9       r8>@19f+4..@18e<bf+>c+<bf+e f+e<b>e<bf+>f+e<b>e<bf+>f+e<br 
ABC     r8>   f+4..   e<bf+>c+<bf+e f+e<b>e<bf+>f+e<b>e<bf+>f+e<br
9       l24 > @19c+@18de [3 c+de ] f+4r4 @19r8>c+16r8d16r8e4.r8 
A       l24 >    c+   de [3 c+de ] f+4r4    r8>c+16r8d16r8e4.r8 
BC      l24 >    c+   de [3 c+de ] f+4r4    r8>c+16r8d16r8e4.r16

;C
9   @14 @e28 v12 hf o5 l1  \-2 
A                      l1 
B            v12    o3 l16 
C            v11    o5 l16 
9   [4 f+ g ] 
9   l16 a2)aa)ra4r \0 
A   [8 r ] 
BC  r1 r1 r1 r1
B   b>@18df+babf+aef+de<abf+a g>ce<g>ce<g>cegceg>ceg 
C   b>   df+babf+aef+de<abf+a g>ce<g>ce<g>cegceg>ceg 
BC  f+<b>d<f+bdf+<bf+b>df+<b>df+b >c<gecgec<g>ec<ge>c<gec
B   @17 v12 hf o5 @\0 
C       v12 hf o6 @\25
BC  c+ea>c+<)ea>c+er8 l32 agf)edc<b(a(g(f(e(d v0 l16

;C Bass
D   @13 v13 o2 q5 \-2
;D  l32 b8brbr16.br>br<bra16b16r16b16brbr>b16<b16> crcrg&  g_g+&  g+_>c16&c8<g8c8crcra+16&>c16<c8
D       b8b b   rb >b <b a  b  r  b  b b >b  <b  > c c g32&g_g+32&g+_>c&  c8<g8c8c c a+&  >c  <c8
;D  <a16&b16brbr>a16&b16e16&f+16<brbr>d16&e16<brbra16&b16 >crcrc8a+16&>c16<crcrcrcr>d32&d_e16.&e8<grar
D   <a&  b  b b >a&  b  e&  f+  <b b >d&  e  <b b a&  b   >c c c8a+&  >c  <c c c c >d32&d_e.&  e8<g a
;D  <b16r16brbrb8>a16&b16<brbr>a16&b16e16&f+16<a16&b16 >crc16r16cr>cr<crc16r16crcrdrdrerer>e&  e_<a16.
D   <b  r  b b b8>a&  b  <b b >a&  b  e&  f+  <a&  b   >c c  r  c >c <c c  r  c c d d e e >e32&e_<a.
;D  <a16b16r16br>a16&b16r16<b8br>a16&b16<brbrb8 >crcr>c&  c_d16.&d8<grgr>g  &g_a16.&a16r16 g16&g_<a16&a8
D   <a  b  r  b >a&  b  r  <b8b >a&  b  <b b b8 >c c >c32&c_d.&  d8<g g >g32&g_a.&  a  r   g&  g_<a&  a8 

A       v12 hf o6 l16    @\25 
D   @17 v12    o5 l16 \0      q8
DA  ea>c+e<)2a>c+ear8^32 l32 (2agf)edc<b(a(g(f(e
A   l16 
D   l1 

9ABCD   ]

;*-*-* Sub *-*-*

;A
678 [0

6   @e24 v12 h7,1,2,1 o4 q7 l2 
7   @e25 v12 h5,2,2,1 o4 q7 l1 
8   @e24 v12 h3,3,2,1 o4 q7 l1 
6   [ b>e <b>e< 
7   f+    f+ 
8   e     e 
6   | b1^16 >b...< ] b1 
7   f+^32 >f+2.... 
8   e     >e 
7   <f+ f+ f+ 
8   <e  e  e 

;B
6   l16 v13 b8.>c4^ v14 d8.e4^ 
7   l16 v13 g+8.a4^ v14 b8.>c+4^ 
8   l16 v13 e8.f4^ v14 g8.a4^ 
6   k0 [ f+8.f+r4^f+rF+rf+8^ f+8^f+r4.f+f+r4 
7   k0 [ d+8.d+r4^d+rd+rd+8^ d+8^d+r4.d+d+r4 
8   k0 [ b8.br4^brbrb8^ b8^br4.bbr4 
6   f8.fr4^ | frfrf8^ f8^fr4.ffr4 ] frf4^ 
7   d8.dr4^ | drdrd8^ d8^dr4.ddr4 ] drd4^ 
8   a+8.a+r4^ | a+ra+ra+8^ a+8^a+r4.a+a+r4 ] a+ra+4^ 
6   k1 l2 ga v12
7   k1 l1 e2f+2 v12
8   k1 l1 >c2d2 v12
6   [ [ <b>e <b>e< 
7   [ [ <f+ f+ 
8   [ [ <e e 
6   b1^16 | >b... ] k0 >b16r16b16r. k1 ] 
7   f+^32 | >f+2.... ] k0 r32>f+16r16f+16r2. k1 ] 
8   e | >e ] k0 r16>e16r16e16r2. k1 ] 

;C
6       @e26 v9 h0,2,2,1 o4 q8 l1 k1 
7       @e26 v9 h2,3,1,1 o4 q8 l1 k1 
8   @04 @e27 v9 h3,4,1,1 o3 q8 l1 k1 
6   f+ g 
8   b >c 
7   d e 
6   f+ g 
7   d e 
8   <b >c 
6   f+ g 
7   d e 
8   <b >c 
6   f+ g 
7   d e 
8   <b >c 
6   a2)a16a16r16)a4^16 
7   e2)e16e16r16)e4^16 
8   c+2)c+16c+16r16)c+4^16 

678 ]

;*-*-* Bass *-*-*

5E  [0

5   [ g+32r32g+32r32g+8r>g+8.<g+8&>g+<g+r>f+g+r <g32r32g32r32g8>g<g8.g_b8&br>e8<br | 
E   [ g+     g+     g+8r>g+8.<g+8&>g+<g+r>f+g+r <g     g     g8>g<g8.g_b8&br>e8<br | 
5   f+32r32f+32r32f+8rb8.>e8edrf+8. <f+32r32f+32r32f+8r>f+8r<f+f+8f+>f+8e&f+< ] 
E   f+     f+     f+8rb8.>e8edrf+8. <f+     f+     f+8r>f+8r<f+f+8f+>f+8e&f+< ] 
E   q7 
5   f+32r32f+32r32f+8>f+<f+8rf+8>f+r<f+8>f+r< 
E   f+     f+     f+8>f+<f+8rf+8>f+r<f+8>f+r< 
E   q8 
5E  f+8.g4^a8.b&b_>b8&b8
E   q7 
5   [ c+8rc+c+.r32b&>c+r<c+rc+c+.r32b&>c+ <c+8rc+r8>f+&g+r8<ed+c+b8r 
E   [ c+8rc+c+8   b&>c+r<c+rc+c+8   b&>c+ <c+8rc+r8>f+&g+r8<ed+c+b8r 
5   cc.r32cc.r32a+&>cr<crcc.r32a+&>c | <c.r32cca+&>c<f&gr8<d+c+c>c8r ] 
E   cc8   cc8   a+&>cr<crcc8   a+&>c | <c8   cca+&>c<f&gr8<d+c+c>c8r ] 
5   <d.r32dd>c&d<g&aee.r32e>e.r32<e.r32 
E   <d8   dd>c&d<g&aee8   e>e8   <e8 
5   < [ g+32r32g+8g+>g+8<g+8g+8>f+&g+<g+32r32g+32r32>e&f+ <f+32r32f+32r32f+rb8b>c+8c+d8f_d8d8 
E   < [ g+     g+8g+>g+8<g+8g+8>f+&g+<g+     g+     >e&f+ <f+     f+     f+rb8b>c+8c+d8f_d8d8 
5   <f+32r32f+8f+>e&f+<f+8f+32r32f+32r32>e&f+c+&d<b&>c+ <f+32r32f+32r32f+8r>f+8r<f+32r32f+8f+>e&f+<b&>c+ 
E   <f+     f+8f+>e&f+<f+8f+     f+     >e&f+c+&d<b&>c+ <f+     f+     f+8r>f+8r<f+     f+8f+>e&f+<b&>c+ 
5   <g+32r32g+32r32>g+8r<g+rg+8g+>f+&g+<g+8>e&f+ <g8>g8r<grg8g>f&g<g32r32g32r32g8 
E   <g+     g+     >g+8r<g+rg+8g+>f+&g+<g+8>e&f+ <g8>g8r<grg8g>f&g<g     g     g8 
5   f+32r32f+8f+b8f+>c+8c+32r32<f+8b8f+8 f+8>f+8r<f+8f+32r32f+32r32>f+8<f+f+64r32.f+64r32.f+8 ] 
E   f+     f+8f+b8f+>c+8c+     <f+8b8f+8 f+8>f+8r<f+8f+     f+     >f+8<f+f+      f+      f+8 ] 

5   @\10 
5   l32 b8brbr16.br>br<bra16b16r16b16brbr>b16<b16> crcrg&  g_g+&  g+_>c16&c8<g8c8crcra+16&>c16<c8 
E       b8b b   rb >b <b a  b  r  b  b b >b  <b  > c c g32&g_g+32&g+_>c&  c8<g8c8c c a+&  >c  <c8 
5   <a16&b16brbr>a16&b16e16&f+16<brbr>d16&e16<brbra16&b16 >crcrc8a+16&>c16<crcrcrcr>d32&d_e16.&e8<grar 
E   <a&  b  b b >a&  b  e&  f+  <b b >d&  e  <b b a&  b   >c c c8a+&  >c  <c c c c >d32&d_e.&  e8<g a 
5   <b16r16brbrb8>a16&b16<brbr>a16&b16e16&f+16<a16&b16 >crc16r16cr>cr<crc16r16crcrdrdrerer>e&  e_<a16. 
E   <b  r  b b b8>a  &b  <b b >a&  b  e&  f+  <a&  b   >c c  r  c >c <c c  r  c c d d e e >e32&e_<a. 
5   <a16b16r16br>a16&b16r16<b8br>a16&b16<brbrb8 >crcr>c&  c_d16.&d8<grgr>g&  g_a16.&a16r16 g16&g_<a16&a8 
E   <a  b  r  b >a&  b  r  <b8b >a&  b  <b b b8 >c c >c32&c_d.&  d8<g g >g32&g_a.&  a  r   g&  g_<a&  a8 

5   @\1 
E   l32 
5E  <f+8f+rf+rf+rf+r>c+r<f+rf+rf+r>f+r<f+r>er16.e16&f+16
5   l16 < 
E   l16 q8 < 

5E  ]

;*-*-* Drums *-*-*

FGH1423 [0

F   [ [ *b05       [ *b10 ] *s20            *b10*b05       *b05       *s00                 ] 
G   [ [ [4 *h11 ]           *s21            [5 *h11 ]                 *s01                 ] 
H   [ [ *b07       [ *b12 ] *s22            *b12*b07       *b07       *s02                 ] 
1   [ [ *b13v15*h13*b13*b13 *s23            *b13*b13v15*h13*b13v15*h13*s03                 ] 
4   [ [ *h14   *h14*h14*h14 *s14*h04*h14*h14*h14*h14   *h14*h14   *h14*s14*h04*h14*h14*h14 ] 
23  [ [ r ]

F   *b05        [3 *b10 ]   *s20*b05        *b05                  *s20            *b10 | 
G   [5 *h11 ]               *s21            [4 *h11 ]             *s21            *h11 | 
H   *b07        [3 *b12 ]   *s22            *b07       *b07       *s22            *b12 | 
1   *b13v15*h13 [3 *b13]    *s23            *b13v15*h13*b13v15*h13*s23            *b13 | 
4   *h14   *h14 *h14*h14*h14*s14*h04*h14*h14*h14   *h14*h14   *h14*s14*h04*h14*h14*h14 | 
23  r |

F   *b10*b05       *b10*s20            [ *b10 ] [3 *t10 ] [ *m15 ] *m10*l10*l10     ] 
G   [4 *h11 ]          *s21            *h11*h11 [3 *t11 ] *m16*m16 *m11*l11*l11     ] 
H   *b12*b07       *b12*s22            [ *b12 ] [3 *t12 ] *m17*m17 *m12*l12*l12     ] 
1   *b13*b13v15*h13*b13*s23            *b13*b13 [3 *t13 ] [ *m18 ] *m13 [ *l13 ]    ] 
4   *h14*h14   *h14*h14*s14*h04*h14*h14*h14*h14 [3 *t14 ] *m19*m19 *m14*l14*l14*h04 ] 
23  r ]

F   [    *c20*c00r16 ] 
G   [    *c21*c01r16 ] 
H   [    *c22*c02r16 ] 
1   [ v15*c23*c03r16 ] 
4   [    *c24*c04v0c16v15 ] 
23  r

F   [ *b10 ]   *o05*t15*t15  *t10*m10*l10    *b10   *c05*c05*c20 
G   *h11*h11   *o06*t16*t16  *t11*m11*l11    *h11   *c06*c06*c21 
H   [ *b12 ]   *o07*t17*t17  *t12*m12*l12    *b12   *c07*c07*c22 
1   *b13*b13v15*o08 [ *t18 ] *t13*m13*l13    *b13v15*c08*c08*c23 
4   *h14*h14   *o09*t19*t19  *t14*m14*l14*h04*h14   *c09*c09*c24 
23  r

F   *b10   *o05*b10r8                 *b10r               [ *s10 ] *t10*t10 [ *m15 ] *m10*l10*l10 
G   *h11   *o06*h11r8                 *h11r16             *s11*s11 *t11*t11 *m16*m16 *m11*l11*l11 
H   *b12   *o07*b12r8                 *b12r16             *s12*s12 *t12*t12 *m17*m17 *m12*l12*l12 
1   *b13v15*o08*b13l%2*k00*k00l16o1v15*b13l%2*k00l16o1v15 [ *s13 ] [ *t13 ] [ *m18 ] *m13 [ *l13 ] 
4   *h14   *o09*h14r8                 *h14r               *s14*s14 *t14*t14 *m19*m19 *m14*l14*l14*h04 
2   r4             l%2*k01*k01r16            *k01r2 
3   r4             l%2*k02*k02r16            *k02r2 

F   [ *b10 ]   *o05*b10*s25    [3 *b10 ]      *c05*c05*c20 
G   *h11*h11   *o06*h11*s26    *h11*h11*h11   *c06*c06*c21 
H   [ *b12 ]   *o07*b12*s27    [3 *b12 ]      *c07*c07*c22 
1   *b13*b13v15*o08*b13*s28    [3 *b13 ]   v15*c08*c08*c23 
4   *h14*h14   *o09*h14*s29*h04*h14*h14*h14   *c09*c09*c24 
23  r1

F   *b10*s35r8                 *s30    *b10*s20            [ *b10 ] *s10*s10 
G   *h11*s36r8                 *s31    *h11*s21            *h11*h11 *s11*s11 
H   *b12*s37r8                 *s32    *b12*s22            [ *b12 ] *s12*s12 
1   *b13*s38l%2*k00*k00l16o1v15*s33    *b13*s23            *b13*b13 [ *s13 ] 
4   *h14*s39r8                 *s34*h04*h14*s14*h04*h14*h14*h14*h14 *s14*s14*h04 
2   r4         *k01*k01r2^8 
3   r4         *k02*k02r2^8 

F   *b10*b10   *c00*m10    *b10   r8. *c05*c20 
G   *h11*h11   *c01*m11    *h11   *c36*c06*c21 
H   *b12*b12   *c02*m12    *b12   r8. *c07*c22 
1   *b13*b13v15*c03*m13    *b13v15*c38*c08*c23 
4   *h14*h14   *c04*m14*h04*h14   *c39*c09*c24 
23  r1

F   *b10*s05    *b10r8.*h10                    *s10*s20            *m15*m15 *m10 *l10*l10 
G   *h11*s06    *h11r8.*h11                    *s11*s21            *m16*m16 *m11 *l11*l11 
H   *b12*s07    *b12r8.*h12                    *s12*s22            *m17*m17 *m12 *l12*l12 
1   *b13*s08    *b13l%2*k00*k00*k00*k03l16o1v15*s13*s23            [ *m18 ] *m13 [ *l13 ] 
4   *h14*s09*h04*h14r8.*h14                    *s14*s14*h04*h14*h14*m19*m19 *m14 *l14*l14*h04 
2   r4                 *k01*k01*k01*k04r2l1 
3   r4                 *k02*k02*k02*k05r2l1 

F   [ *b10 ]   *o05*l15r64*s30*s30  *s05r64    [ *b10 ] [3 *s10 ] 
G   *h11*h11   *o06*l16r64*s31*s31  *s06r64    *h11*h11 [3 *s11 ] 
H   [ *b12 ]   *o07*l17r64*s32*s32  *s07r64    [ *b12 ] [3 *s12 ] 
1   *b13*b13v15*o08*l18r64 [ *s33 ] *s08r64    *b13*b13 [3 *s13 ] 
4   *h14*h14   *o09*l19r64*s34*s34  *s09r64*h04*h14*h14*s14*s14*s14*h04 
23  r

F   [ *b10 ] *b05*s05*o05*b10 [3 *t10 ] *m10*m10 *l10*l10 
G   *h11*h11 *h06*s06*o06*h11 [3 *t11 ] *m11*m11 *l11*l11 
H   [ *b12 ] *b07*s07*o07*b12 [3 *t12 ] *m12*m12 *l12*l12 
1   *b13*b13 *b08*s08*o08*b13 [3 *t13 ]  [ *m13 ] [ *l13 ] 
4   *h14*h14 *h09*s09*o09*h14 [3 *t14 ] *m14*m14 *l14*l14 
23  r

F   [ [ *b05       [ *b10 ] *s20 *b10*b05       *b05       *s00 ] 
G   [ [ *h11   *h11*h11*h11 *s21 *h11*h11   *h11*h11   *h11*s01 ] 
H   [ [ *b07       [ *b12 ] *s22 *b12*b07       *b07       *s02 ] 
1   [ [ *b13v15*h13*b13*b13 *s23 *b13*b13v15*h13*b13v15*h13*s03 ] 
4   [ [ [4 *w00*h14*h14*h14 ] ] 
23  [ [ r ]

F   *b05        [3 *b10 ]   *s20             *b05       *b05       *s20*b10 | 
G   *h11   *h11 *h11*h11*h11*s21             *h11   *h11*h11   *h11*s21*h11 | 
H   *b07        [3 *b12 ]   *s22             *b07       *b07       *s22*b12 | 
1   *b13v15*h13 [3 *b13 ]   *s23             *b13v15*h13*b13v15*h13*s23*b13 | 
4   *w00   *h14 *h14*h14*w00*s14*h04*h14*h14 [ *w00*h14*h14*h14 ]     | 
23  r |

F   *b10*b05       *b10*s20 *b10*b05       *b05        [4 *s10 ]       ] 
G   *h11*h11   *h11*h11*s21 *h11*h11   *h11*h11   *h11 [4 *s11 ]       ] 
H   *b12*b07       *b12*s22 *b12*b07       *b07        [4 *s12 ]       ] 
1   *b13*b13v15*h13*b13*s23 *b13*b13v15*h13*b13v15*h13 [4 *s13 ]       ] 
4   [3 *w00*h14*h14*h14 ]                             *w00*s14*s14*s14 ] 
23  r ]

F   *b10*b05       *b10*s20 [ *b10 ] [3 *t10 ] *m15*m15 *m10*l10*l10 
G   *h11*h11   *h11*h11*s21 *h11*h11 [3 *t11 ] *m16*m16 *m11*l11*l11 
H   *b12*b07       *b12*s22 [ *b12 ] [3 *t12 ] *m17*m17 *m12*l12*l12 
1   *b13*b13v15*h13*b13*s23 *b13*b13 [3 *t13 ]  [ *m18 ] *m13 [ *l13 ] 
4   [ *w00*h14*h14*h14 ]        *w00 [3 *t14 ] *w01*m19 *m14*l14*l14 
23  r

F   [3 *b05       [ *b10 ] *s20 *b10*b05       *b05       *s00             ] 
G   [3 *h11   *h11*h11*h11 *s21 *h11*h11   *h11*h11   *h11*s01             ] 
H   [3 *b07       [ *b12 ] *s22 *b12*b07       *b07       *s02             ] 
1   [3 *b13v15*h13*b13*b13 *s23 *b13*b13v15*h13*b13v15*h13*s03             ] 
4   [3 [4 *w00*h14*h14*h14 ] ] 
23  [3 r ]

F   *b10*b05       *b10*s20 *b10*b05       *b05       *s15*s15  [3 *s10 ] 
G   *h11*h11   *h11*h11*s21 *h11*h11   *h11*h11   *h11*s16*s16  [3 *s11 ] 
H   *b12*b07       *b12*s22 *b12*b07       *b07       *s17*s17  [3 *s12 ] 
1   *b13*b13v15*h13*b13*s23 *b13*b13v15*h13*b13v15*h13 [ *s18 ] [3 *s13 ] 
4   [3 *w00*h14*h14*h14 ]                             *w01*s19  *s14*s14*s14 
23  r

F   [ *b15 ] *b10   *c00       *b05       *b10*b05       *b10*s00 
G   *h16*h16 *h11   *c01       *h11   *h11*h11*h11   *h11*h11*s01 
H   [ *b17 ] *b12   *c02       *b07       *b12*b07       *b12*s02 
1   *b18*b18 *b13v15*c03       *b13v15*h13*b13*b13v15*h13*b13*s03 
4   *w00     *h14   *c09*w00r16*h14   *h14*w00*h14   *h14*h14*w00*h14*h14*h14 
23  r

F   *b05        [ *b10 ] *s20 *b10*b05       *b05       *s00 
G   *h11   *h11 *h11*h11 *s21 *h11*h11   *h11*h11   *h11*s01 
H   *b07        [ *b12 ] *s22 *b12*b07       *b07       *s02 
1   *b13v15*h13 *b13*b13 *s23 *b13*b13v15*h13*b13v15*h13*s03 
4   [4 *w00*h14 *h14*h14 ] 
23  r

F   *b05        [3 *b10 ]   *s20             *b05       *b05       *s20*b10 
G   *h11   *h11 *h11*h11*h11*s21             *h11   *h11*h11   *h11*s21*h11 
H   *b07        [3 *b12 ]   *s22             *b07       *b07       *s22*b12 
1   *b13v15*h13 [3 *b13 ]   *s23             *b13v15*h13*b13v15*h13*s23*b13 
4   *w00   *h14 *h14*h14*w00*s14*h04*h14*h14 [ *w00*h14*h14*h14 ] 
23  r

F   *b10*b05       *b10*s10*s10  *o05*b10*s15*s15  *s10*s10 *t10*t10 *m10*l10 
G   *h11*h11   *h11*h11*s11*s11  *o06*h11*s16*s16  *s11*s11 *t11*t11 *m11*l11 
H   *b12*b07       *b12*s12*s12  *o07*b12*s17*s17  *s12*s12 *t12*t12 *m12*l12 
1   *b13*b13v15*h13*b13 [ *s13 ] *o08*b13 [ *s18 ] [ *s13 ] [ *t13 ] *m13*l13 
4   *w00*h14   *h14*h14*w00*s14  *o09*w00*s19*s19  *s14*s14 *w00*t14 *m14*l14*h04 
23  r

F   [4 *b05       [ *b10 ] *s20            *b10*b05       *b05        | *s00                 ] *s05*s10*s10 
G   [4 *h11   *h11*h11*h11 *s21            *b11*h11   *h11*h11   *h11 | *s01                 ] *s06*s11*s11 
H   [4 *b07       [ *b12 ] *s22            *b12*b07       *b07        | *s02                 ] *s07*s12*s12 
1   [4 *b13v15*h13*b13*b13 *s23            *b13*b13v15*h13*b13v15*h13 | *s03                 ] *s08 [ *s13 ] 
4   [4 *h14   *h14*h14*h14 *s14*h04*h14*h14*h14*h14   *h14*h14   *h14 | *s14*h04*h14*h14*h14 ] *s09*s14*s14*h04 
23  [4 r ]

F   [ [ *b05       *o05*s20            *b10 | *b10*s10*o05*s20            *b10 ] | *b10*s10*o05*s10*s20             ] 
G   [ [ *h11   *h11*o06*s21            *h11 | *h11*s11*o06*s21            *h11 ] | *h11*s11*o06*s11*s21             ] 
H   [ [ *b07       *o07*s22            *b12 | *b12*s12*o07*s22            *b12 ] | *b12*s12*o07*s12*s22             ] 
1   [ [ *b13v15*h13*o08*s23            *b13 | *b13*s13*o08*s23            *b13 ] | *b13*s13*o08*s13*s23             ] 
4   [ [ *h14   *h14*o09*s14*h04*h14*h14*h14 | *h14*s14*o09*s14*h04*h14*h14*h14 ] | *h14*s14*o09*s14*s14*h04*h14*h14 ] 
23  [ [ r ]

F   [4 *s10 ] *m10*m10*l10*l10 
G   [4 *s11 ] *m11*m11*l11*l11 
H   [4 *s12 ] *m12*m12*l12*l12 
1   [4 *s13 ] [ *m13 ] [ *l13 ] 
4   [4 *s14 ] *m14*m14*l14*l14*h04 
23  ]

F   *b05       *o05*s20            [ *b10 ] *s05*s10    *b10 [3 *s10 ] 
G   *h11   *h11*o06*s21            *h11*h11 *s06*s11    *h11 [3 *s11 ] 
H   *b07       *o07*s22            [ *b12 ] *s07*s12    *b12 [3 *s12 ] 
1   *b13v15*h13*o08*s23            *b13*b13 *s08*s13    *b13 [3 *s13 ] 
4   *h14   *h14*o09*s14*h04*h14*h14*h14*h14 *s09*s14*h04*h14*s14*s14*s14*h04 
23  r

FGH1423 ]

#end